UNSWComputing/PyBullet-Nao-Motion-Editor/intermed_joint_data.csv
j1,j2,j3,j4,j5,j6,j7,j8,j9,j10,j11,j12,j13,j14,j15,j16,j17,j18,j19,j20,j21,j22,j23,j24,j25
0,-0.164262925,1.570796327,0.164162925,0,0,0,0,0,-0.490742191,0.882934626,-0.441462313,0,0,-0.490742191,0.882934626,-0.441462313,0,1.570796327,-0.164162925,0,0,0,0,0
0,-0.153992925,1.570796327,0.153792925,0,0,0,0,0,-0.492792191,0.893204626,-0.446592313,0,0,-0.492792191,0.893204626,-0.446592313,0,1.570796327,-0.153792925,0,0,0,0,0
0,-0.143722925,1.570796327,0.143422925,0,0,0,0,0,-0.494842191,0.903474626,-0.451722313,0,0,-0.494842191,0.903474626,-0.451722313,0,1.570796327,-0.143422925,0,0,0,0,0
0,-0.133452925,1.570796327,0.133052925,0,0,0,0,0,-0.496892191,0.913744626,-0.456852313,0,0,-0.496892191,0.913744626,-0.456852313,0,1.570796327,-0.133052925,0,0,0,0,0
0,-0.123182925,1.570796327,0.122682925,0,0,0,0,0,-0.498942191,0.924014626,-0.461982313,0,0,-0.498942191,0.924014626,-0.461982313,0,1.570796327,-0.122682925,0,0,0,0,0
0,-0.112912925,1.570796327,0.112312925,0,0,0,0,0,-0.500992191,0.934284626,-0.467112313,0,0,-0.500992191,0.934284626,-0.467112313,0,1.570796327,-0.112312925,0,0,0,0,0
0,-0.102642925,1.570796327,0.101942925,0,0,0,0,0,-0.503042191,0.944554626,-0.472242313,0,0,-0.503042191,0.944554626,-0.472242313,0,1.570796327,-0.101942925,0,0,0,0,0
0,-0.092372925,1.570796327,0.091572925,0,0,0,0,0,-0.505092191,0.954824626,-0.477372313,0,0,-0.505092191,0.954824626,-0.477372313,0,1.570796327,-0.091572925,0,0,0,0,0
0,-0.082102925,1.570796327,0.081202925,0,0,0,0,0,-0.507142191,0.965094626,-0.482502313,0,0,-0.507142191,0.965094626,-0.482502313,0,1.570796327,-0.081202925,0,0,0,0,0
0,-0.071832925,1.570796327,0.070832925,0,0,0,0,0,-0.509192191,0.975364626,-0.487632313,0,0,-0.509192191,0.975364626,-0.487632313,0,1.570796327,-0.070832925,0,0,0,0,0
0,-0.061562925,1.570796327,0.060462925,0,0,0,0,0,-0.511242191,0.985634626,-0.492762313,0,0,-0.511242191,0.985634626,-0.492762313,0,1.570796327,-0.060462925,0,0,0,0,0
0,-0.051292925,1.570796327,0.050092925,0,0,0,0,0,-0.513292191,0.995904626,-0.497892313,0,0,-0.513292191,0.995904626,-0.497892313,0,1.570796327,-0.050092925,0,0,0,0,0
0,-0.041022925,1.570796327,0.039722925,0,0,0,0,0,-0.515342191,1.006174626,-0.503022313,0,0,-0.515342191,1.006174626,-0.503022313,0,1.570796327,-0.039722925,0,0,0,0,0
0,-0.030752925,1.570796327,0.029352925,0,0,0,0,0,-0.517392191,1.016444626,-0.508152313,0,0,-0.517392191,1.016444626,-0.508152313,0,1.570796327,-0.029352925,0,0,0,0,0
0,-0.020482925,1.570796327,0.018982925,0,0,0,0,0,-0.519442191,1.026714626,-0.513282313,0,0,-0.519442191,1.026714626,-0.513282313,0,1.570796327,-0.018982925,0,0,0,0,0
0,-0.010212925,1.570796327,0.008612925,0,0,0,0,0,-0.521492191,1.036984626,-0.518412313,0,0,-0.521492191,1.036984626,-0.518412313,0,1.570796327,-0.008612925,0,0,0,0,0
0,-0.010212925,1.570796327,0.008612925,0,0,0,0,0,-0.523542191,1.036984626,-0.523542313,0,0,-0.523542191,1.036984626,-0.523542313,0,1.570796327,-0.008612925,0,0,0,0,0
0,-0.164262925,1.570796327,0.164162925,0,0,0,0,0,-0.490742191,0.882934626,-0.441462313,0,0,-0.490742191,0.882934626,-0.441462313,0,1.570796327,-0.164162925,0,0,0,0,0
0,-0.153992925,1.570796327,0.153792925,0,0,0,0,0,-0.492792191,0.893204626,-0.446592313,0,0,-0.492792191,0.893204626,-0.446592313,0,1.570796327,-0.153792925,0,0,0,0,0
0,-0.143722925,1.570796327,0.143422925,0,0,0,0,0,-0.494842191,0.903474626,-0.451722313,0,0,-0.494842191,0.903474626,-0.451722313,0,1.570796327,-0.143422925,0,0,0,0,0
0,-0.133452925,1.570796327,0.133052925,0,0,0,0,0,-0.496892191,0.913744626,-0.456852313,0,0,-0.496892191,0.913744626,-0.456852313,0,1.570796327,-0.133052925,0,0,0,0,0
0,-0.123182925,1.570796327,0.122682925,0,0,0,0,0,-0.498942191,0.924014626,-0.461982313,0,0,-0.498942191,0.924014626,-0.461982313,0,1.570796327,-0.122682925,0,0,0,0,0
0,-0.112912925,1.570796327,0.112312925,0,0,0,0,0,-0.500992191,0.934284626,-0.467112313,0,0,-0.500992191,0.934284626,-0.467112313,0,1.570796327,-0.112312925,0,0,0,0,0
0,-0.102642925,1.570796327,0.101942925,0,0,0,0,0,-0.503042191,0.944554626,-0.472242313,0,0,-0.503042191,0.944554626,-0.472242313,0,1.570796327,-0.101942925,0,0,0,0,0
0,-0.092372925,1.570796327,0.091572925,0,0,0,0,0,-0.505092191,0.954824626,-0.477372313,0,0,-0.505092191,0.954824626,-0.477372313,0,1.570796327,-0.091572925,0,0,0,0,0
0,-0.082102925,1.570796327,0.081202925,0,0,0,0,0,-0.507142191,0.965094626,-0.482502313,0,0,-0.507142191,0.965094626,-0.482502313,0,1.570796327,-0.081202925,0,0,0,0,0
0,-0.071832925,1.570796327,0.070832925,0,0,0,0,0,-0.509192191,0.975364626,-0.487632313,0,0,-0.509192191,0.975364626,-0.487632313,0,1.570796327,-0.070832925,0,0,0,0,0
0,-0.061562925,1.570796327,0.060462925,0,0,0,0,0,-0.511242191,0.985634626,-0.492762313,0,0,-0.511242191,0.985634626,-0.492762313,0,1.570796327,-0.060462925,0,0,0,0,0
0,-0.051292925,1.570796327,0.050092925,0,0,0,0,0,-0.513292191,0.995904626,-0.497892313,0,0,-0.513292191,0.995904626,-0.497892313,0,1.570796327,-0.050092925,0,0,0,0,0
0,-0.041022925,1.570796327,0.039722925,0,0,0,0,0,-0.515342191,1.006174626,-0.503022313,0,0,-0.515342191,1.006174626,-0.503022313,0,1.570796327,-0.039722925,0,0,0,0,0
0,-0.030752925,1.570796327,0.029352925,0,0,0,0,0,-0.517392191,1.016444626,-0.508152313,0,0,-0.517392191,1.016444626,-0.508152313,0,1.570796327,-0.029352925,0,0,0,0,0
0,-0.020482925,1.570796327,0.018982925,0,0,0,0,0,-0.519442191,1.026714626,-0.513282313,0,0,-0.519442191,1.026714626,-0.513282313,0,1.570796327,-0.018982925,0,0,0,0,0
0,-0.010212925,1.570796327,0.008612925,0,0,0,0,0,-0.521492191,1.036984626,-0.518412313,0,0,-0.521492191,1.036984626,-0.518412313,0,1.570796327,-0.008612925,0,0,0,0,0
0,-0.010212925,1.570796327,0.008612925,0,0,0,0,0,-0.523542191,1.036984626,-0.523542313,0,0,-0.523542191,1.036984626,-0.523542313,0,1.570796327,-0.008612925,0,0,0,0,0
0,-0.164262925,1.570796327,0.164162925,0,0,0,0,0,-0.490742191,0.882934626,-0.441462313,0,0,-0.490742191,0.882934626,-0.441462313,0,1.570796327,-0.164162925,0,0,0,0,0
0,-0.153992925,1.570796327,0.153792925,0,0,0,0,0,-0.492792191,0.893204626,-0.446592313,0,0,-0.492792191,0.893204626,-0.446592313,0,1.570796327,-0.153792925,0,0,0,0,0
0,-0.143722925,1.570796327,0.143422925,0,0,0,0,0,-0.494842191,0.903474626,-0.451722313,0,0,-0.494842191,0.903474626,-0.451722313,0,1.570796327,-0.143422925,0,0,0,0,0
0,-0.133452925,1.570796327,0.133052925,0,0,0,0,0,-0.496892191,0.913744626,-0.456852313,0,0,-0.496892191,0.913744626,-0.456852313,0,1.570796327,-0.133052925,0,0,0,0,0
0,-0.123182925,1.570796327,0.122682925,0,0,0,0,0,-0.498942191,0.924014626,-0.461982313,0,0,-0.498942191,0.924014626,-0.461982313,0,1.570796327,-0.122682925,0,0,0,0,0
0,-0.112912925,1.570796327,0.112312925,0,0,0,0,0,-0.500992191,0.934284626,-0.467112313,0,0,-0.500992191,0.934284626,-0.467112313,0,1.570796327,-0.112312925,0,0,0,0,0
0,-0.102642925,1.570796327,0.101942925,0,0,0,0,0,-0.503042191,0.944554626,-0.472242313,0,0,-0.503042191,0.944554626,-0.472242313,0,1.570796327,-0.101942925,0,0,0,0,0
0,-0.092372925,1.570796327,0.091572925,0,0,0,0,0,-0.505092191,0.954824626,-0.477372313,0,0,-0.505092191,0.954824626,-0.477372313,0,1.570796327,-0.091572925,0,0,0,0,0
0,-0.082102925,1.570796327,0.081202925,0,0,0,0,0,-0.507142191,0.965094626,-0.482502313,0,0,-0.507142191,0.965094626,-0.482502313,0,1.570796327,-0.081202925,0,0,0,0,0
0,-0.071832925,1.570796327,0.070832925,0,0,0,0,0,-0.509192191,0.975364626,-0.487632313,0,0,-0.509192191,0.975364626,-0.487632313,0,1.570796327,-0.070832925,0,0,0,0,0
0,-0.061562925,1.570796327,0.060462925,0,0,0,0,0,-0.511242191,0.985634626,-0.492762313,0,0,-0.511242191,0.985634626,-0.492762313,0,1.570796327,-0.060462925,0,0,0,0,0
0,-0.051292925,1.570796327,0.050092925,0,0,0,0,0,-0.513292191,0.995904626,-0.497892313,0,0,-0.513292191,0.995904626,-0.497892313,0,1.570796327,-0.050092925,0,0,0,0,0
0,-0.041022925,1.570796327,0.039722925,0,0,0,0,0,-0.515342191,1.006174626,-0.503022313,0,0,-0.515342191,1.006174626,-0.503022313,0,1.570796327,-0.039722925,0,0,0,0,0
0,-0.030752925,1.570796327,0.029352925,0,0,0,0,0,-0.517392191,1.016444626,-0.508152313,0,0,-0.517392191,1.016444626,-0.508152313,0,1.570796327,-0.029352925,0,0,0,0,0
0,-0.020482925,1.570796327,0.018982925,0,0,0,0,0,-0.519442191,1.026714626,-0.513282313,0,0,-0.519442191,1.026714626,-0.513282313,0,1.570796327,-0.018982925,0,0,0,0,0
0,-0.010212925,1.570796327,0.008612925,0,0,0,0,0,-0.521492191,1.036984626,-0.518412313,0,0,-0.521492191,1.036984626,-0.518412313,0,1.570796327,-0.008612925,0,0,0,0,0
0,-0.010212925,1.570796327,0.008612925,0,0,0,0,0,-0.523542191,1.036984626,-0.523542313,0,0,-0.523542191,1.036984626,-0.523542313,0,1.570796327,-0.008612925,0,0,0,0,0
0,-0.164262925,1.570796327,0.164162925,0,0,0,0,-0.0001,-0.490742191,0.882934626,-0.441462313,0.0001,-0.0001,-0.490742191,0.882934626,-0.441462313,0.0001,1.570796327,-0.164162925,0,0,0,0,0
0,-0.153992925,1.570796327,0.153792925,0,0,0,0,-0.0002,-0.492792191,0.893204626,-0.446592313,0.0002,-0.0002,-0.492792191,0.893204626,-0.446592313,0.0002,1.570796327,-0.153792925,0,0,0,0,0
0,-0.143722925,1.570796327,0.143422925,0,0,0,0,-0.0003,-0.494842191,0.903474626,-0.451722313,0.0003,-0.0003,-0.494842191,0.903474626,-0.451722313,0.0003,1.570796327,-0.143422925,0,0,0,0,0
0,-0.133452925,1.570796327,0.133052925,0,0,0,0,-0.0004,-0.496892191,0.913744626,-0.456852313,0.0004,-0.0004,-0.496892191,0.913744626,-0.456852313,0.0004,1.570796327,-0.133052925,0,0,0,0,0
0,-0.123182925,1.570796327,0.122682925,0,0,0,0,-0.0005,-0.498942191,0.924014626,-0.461982313,0.0005,-0.0005,-0.498942191,0.924014626,-0.461982313,0.0005,1.570796327,-0.122682925,0,0,0,0,0
0,-0.112912925,1.570796327,0.112312925,0,0,0,0,-0.0006,-0.500992191,0.934284626,-0.467112313,0.0006,-0.0006,-0.500992191,0.934284626,-0.467112313,0.0006,1.570796327,-0.112312925,0,0,0,0,0
0,-0.102642925,1.570796327,0.101942925,0,0,0,0,-0.0007,-0.503042191,0.944554626,-0.472242313,0.0007,-0.0007,-0.503042191,0.944554626,-0.472242313,0.0007,1.570796327,-0.101942925,0,0,0,0,0
0,-0.092372925,1.570796327,0.091572925,0,0,0,0,-0.0008,-0.505092191,0.954824626,-0.477372313,0.0008,-0.0008,-0.505092191,0.954824626,-0.477372313,0.0008,1.570796327,-0.091572925,0,0,0,0,0
0,-0.082102925,1.570796327,0.081202925,0,0,0,0,-0.0009,-0.507142191,0.965094626,-0.482502313,0.0009,-0.0009,-0.507142191,0.965094626,-0.482502313,0.0009,1.570796327,-0.081202925,0,0,0,0,0
0,-0.071832925,1.570796327,0.070832925,0,0,0,0,-0.001,-0.509192191,0.975364626,-0.487632313,0.001,-0.001,-0.509192191,0.975364626,-0.487632313,0.001,1.570796327,-0.070832925,0,0,0,0,0
0,-0.061562925,1.570796327,0.060462925,0,0,0,0,-0.0011,-0.511242191,0.985634626,-0.492762313,0.0011,-0.0011,-0.511242191,0.985634626,-0.492762313,0.0011,1.570796327,-0.060462925,0,0,0,0,0
0,-0.051292925,1.570796327,0.050092925,0,0,0,0,-0.0012,-0.513292191,0.995904626,-0.497892313,0.0012,-0.0012,-0.513292191,0.995904626,-0.497892313,0.0012,1.570796327,-0.050092925,0,0,0,0,0
0,-0.041022925,1.570796327,0.039722925,0,0,0,0,-0.0013,-0.515342191,1.006174626,-0.503022313,0.0013,-0.0013,-0.515342191,1.006174626,-0.503022313,0.0013,1.570796327,-0.039722925,0,0,0,0,0
0,-0.030752925,1.570796327,0.029352925,0,0,0,0,-0.0014,-0.517392191,1.016444626,-0.508152313,0.0014,-0.0014,-0.517392191,1.016444626,-0.508152313,0.0014,1.570796327,-0.029352925,0,0,0,0,0
0,-0.020482925,1.570796327,0.018982925,0,0,0,0,-0.0015,-0.519442191,1.026714626,-0.513282313,0.0015,-0.0015,-0.519442191,1.026714626,-0.513282313,0.0015,1.570796327,-0.018982925,0,0,0,0,0
0,-0.010212925,1.570796327,0.008612925,0,0,0,0,-0.0016,-0.521492191,1.036984626,-0.518412313,0.0016,-0.0016,-0.521492191,1.036984626,-0.518412313,0.0016,1.570796327,-0.008612925,0,0,0,0,0
0,-0.010212925,1.570796327,0.008612925,0,0,0,0,-0.0017,-0.523542191,1.036984626,-0.523542313,0.0017,-0.0017,-0.523542191,1.036984626,-0.523542313,0.0017,1.570796327,-0.008612925,0,0,0,0,0
0,-0.164262925,1.570796327,0.164162925,0,0,0,0,-0.00021,-0.490742191,0.882934626,-0.441462313,0.00021,-0.00021,-0.490742191,0.882934626,-0.441462313,0.00021,1.570796327,-0.164162925,0,0,0,0,0
0,-0.153992925,1.570796327,0.153792925,0,0,0,0,-0.00042,-0.492792191,0.893204626,-0.446592313,0.00042,-0.00042,-0.492792191,0.893204626,-0.446592313,0.00042,1.570796327,-0.153792925,0,0,0,0,0
0,-0.143722925,1.570796327,0.143422925,0,0,0,0,-0.00063,-0.494842191,0.903474626,-0.451722313,0.00063,-0.00063,-0.494842191,0.903474626,-0.451722313,0.00063,1.570796327,-0.143422925,0,0,0,0,0
0,-0.133452925,1.570796327,0.133052925,0,0,0,0,-0.00084,-0.496892191,0.913744626,-0.456852313,0.00084,-0.00084,-0.496892191,0.913744626,-0.456852313,0.00084,1.570796327,-0.133052925,0,0,0,0,0
0,-0.123182925,1.570796327,0.122682925,0,0,0,0,-0.00105,-0.498942191,0.924014626,-0.461982313,0.00105,-0.00105,-0.498942191,0.924014626,-0.461982313,0.00105,1.570796327,-0.122682925,0,0,0,0,0
0,-0.112912925,1.570796327,0.112312925,0,0,0,0,-0.00126,-0.500992191,0.934284626,-0.467112313,0.00126,-0.00126,-0.500992191,0.934284626,-0.467112313,0.00126,1.570796327,-0.112312925,0,0,0,0,0
0,-0.102642925,1.570796327,0.101942925,0,0,0,0,-0.00147,-0.503042191,0.944554626,-0.472242313,0.00147,-0.00147,-0.503042191,0.944554626,-0.472242313,0.00147,1.570796327,-0.101942925,0,0,0,0,0
0,-0.092372925,1.570796327,0.091572925,0,0,0,0,-0.00168,-0.505092191,0.954824626,-0.477372313,0.00168,-0.00168,-0.505092191,0.954824626,-0.477372313,0.00168,1.570796327,-0.091572925,0,0,0,0,0
0,-0.082102925,1.570796327,0.081202925,0,0,0,0,-0.00189,-0.507142191,0.965094626,-0.482502313,0.00189,-0.00189,-0.507142191,0.965094626,-0.482502313,0.00189,1.570796327,-0.081202925,0,0,0,0,0
0,-0.071832925,1.570796327,0.070832925,0,0,0,0,-0.0021,-0.509192191,0.975364626,-0.487632313,0.0021,-0.0021,-0.509192191,0.975364626,-0.487632313,0.0021,1.570796327,-0.070832925,0,0,0,0,0
0,-0.061562925,1.570796327,0.060462925,0,0,0,0,-0.00231,-0.511242191,0.985634626,-0.492762313,0.00231,-0.00231,-0.511242191,0.985634626,-0.492762313,0.00231,1.570796327,-0.060462925,0,0,0,0,0
0,-0.051292925,1.570796327,0.050092925,0,0,0,0,-0.00252,-0.513292191,0.995904626,-0.497892313,0.00252,-0.00252,-0.513292191,0.995904626,-0.497892313,0.00252,1.570796327,-0.050092925,0,0,0,0,0
0,-0.041022925,1.570796327,0.039722925,0,0,0,0,-0.00273,-0.515342191,1.006174626,-0.503022313,0.00273,-0.00273,-0.515342191,1.006174626,-0.503022313,0.00273,1.570796327,-0.039722925,0,0,0,0,0
0,-0.030752925,1.570796327,0.029352925,0,0,0,0,-0.00294,-0.517392191,1.016444626,-0.508152313,0.00294,-0.00294,-0.517392191,1.016444626,-0.508152313,0.00294,1.570796327,-0.029352925,0,0,0,0,0
0,-0.020482925,1.570796327,0.018982925,0,0,0,0,-0.00315,-0.519442191,1.026714626,-0.513282313,0.00315,-0.00315,-0.519442191,1.026714626,-0.513282313,0.00315,1.570796327,-0.018982925,0,0,0,0,0
0,-0.010212925,1.570796327,0.008612925,0,0,0,0,-0.00336,-0.521492191,1.036984626,-0.518412313,0.00336,-0.00336,-0.521492191,1.036984626,-0.518412313,0.00336,1.570796327,-0.008612925,0,0,0,0,0
0,-0.010212925,1.570796327,0.008612925,0,0,0,0,-0.00336,-0.523542191,1.036984626,-0.523542313,0.00336,-0.00336,-0.523542191,1.036984626,-0.523542313,0.00336,1.570796327,-0.008612925,0,0,0,0,0
0,-0.164262925,1.570796327,0.164162925,0,0,0,0,-0.00021,-0.490742191,0.882934626,-0.441462313,0.00021,-0.00021,-0.490742191,0.882934626,-0.441462313,0.00021,1.570796327,-0.164162925,0,0,0,0,0
0,-0.153992925,1.570796327,0.153792925,0,0,0,0,-0.00042,-0.492792191,0.893204626,-0.446592313,0.00042,-0.00042,-0.492792191,0.893204626,-0.446592313,0.00042,1.570796327,-0.153792925,0,0,0,0,0
0,-0.143722925,1.570796327,0.143422925,0,0,0,0,-0.00063,-0.494842191,0.903474626,-0.451722313,0.00063,-0.00063,-0.494842191,0.903474626,-0.451722313,0.00063,1.570796327,-0.143422925,0,0,0,0,0
0,-0.133452925,1.570796327,0.133052925,0,0,0,0,-0.00084,-0.496892191,0.913744626,-0.456852313,0.00084,-0.00084,-0.496892191,0.913744626,-0.456852313,0.00084,1.570796327,-0.133052925,0,0,0,0,0
0,-0.123182925,1.570796327,0.122682925,0,0,0,0,-0.00105,-0.498942191,0.924014626,-0.461982313,0.00105,-0.00105,-0.498942191,0.924014626,-0.461982313,0.00105,1.570796327,-0.122682925,0,0,0,0,0
0,-0.112912925,1.570796327,0.112312925,0,0,0,0,-0.00126,-0.500992191,0.934284626,-0.467112313,0.00126,-0.00126,-0.500992191,0.934284626,-0.467112313,0.00126,1.570796327,-0.112312925,0,0,0,0,0
0,-0.102642925,1.570796327,0.101942925,0,0,0,0,-0.00147,-0.503042191,0.944554626,-0.472242313,0.00147,-0.00147,-0.503042191,0.944554626,-0.472242313,0.00147,1.570796327,-0.101942925,0,0,0,0,0
0,-0.092372925,1.570796327,0.091572925,0,0,0,0,-0.00168,-0.505092191,0.954824626,-0.477372313,0.00168,-0.00168,-0.505092191,0.954824626,-0.477372313,0.00168,1.570796327,-0.091572925,0,0,0,0,0
0,-0.082102925,1.570796327,0.081202925,0,0,0,0,-0.00189,-0.507142191,0.965094626,-0.482502313,0.00189,-0.00189,-0.507142191,0.965094626,-0.482502313,0.00189,1.570796327,-0.081202925,0,0,0,0,0
0,-0.071832925,1.570796327,0.070832925,0,0,0,0,-0.0021,-0.509192191,0.975364626,-0.487632313,0.0021,-0.0021,-0.509192191,0.975364626,-0.487632313,0.0021,1.570796327,-0.070832925,0,0,0,0,0
0,-0.061562925,1.570796327,0.060462925,0,0,0,0,-0.00231,-0.511242191,0.985634626,-0.492762313,0.00231,-0.00231,-0.511242191,0.985634626,-0.492762313,0.00231,1.570796327,-0.060462925,0,0,0,0,0
0,-0.051292925,1.570796327,0.050092925,0,0,0,0,-0.00252,-0.513292191,0.995904626,-0.497892313,0.00252,-0.00252,-0.513292191,0.995904626,-0.497892313,0.00252,1.570796327,-0.050092925,0,0,0,0,0
0,-0.041022925,1.570796327,0.039722925,0,0,0,0,-0.00273,-0.515342191,1.006174626,-0.503022313,0.00273,-0.00273,-0.515342191,1.006174626,-0.503022313,0.00273,1.570796327,-0.039722925,0,0,0,0,0
0,-0.030752925,1.570796327,0.029352925,0,0,0,0,-0.00294,-0.517392191,1.016444626,-0.508152313,0.00294,-0.00294,-0.517392191,1.016444626,-0.508152313,0.00294,1.570796327,-0.029352925,0,0,0,0,0
0,-0.020482925,1.570796327,0.018982925,0,0,0,0,-0.00315,-0.519442191,1.026714626,-0.513282313,0.00315,-0.00315,-0.519442191,1.026714626,-0.513282313,0.00315,1.570796327,-0.018982925,0,0,0,0,0
0,-0.010212925,1.570796327,0.008612925,0,0,0,0,-0.00336,-0.521492191,1.036984626,-0.518412313,0.00336,-0.00336,-0.521492191,1.036984626,-0.518412313,0.00336,1.570796327,-0.008612925,0,0,0,0,0
0,-0.010212925,1.570796327,0.008612925,0,0,0,0,-0.00336,-0.523542191,1.036984626,-0.523542313,0.00336,-0.00336,-0.523542191,1.036984626,-0.523542313,0.00336,1.570796327,-0.008612925,0,0,0,0,0
0,-0.164262925,1.570796327,0.164162925,0,0,0,0,-0.00041,-0.490642191,0.882934626,-0.441572313,0.00041,-0.00041,-0.490642191,0.882934626,-0.441572313,0.00041,1.570796327,-0.164162925,0,0,0,0,0
0,-0.153992925,1.570796327,0.153792925,0,0,0,0,-0.00082,-0.492592191,0.893204626,-0.446812313,0.00082,-0.00082,-0.492592191,0.893204626,-0.446812313,0.00082,1.570796327,-0.153792925,0,0,0,0,0
0,-0.143722925,1.570796327,0.143422925,0,0,0,0,-0.00123,-0.494542191,0.903474626,-0.452052313,0.00123,-0.00123,-0.494542191,0.903474626,-0.452052313,0.00123,1.570796327,-0.143422925,0,0,0,0,0
0,-0.133452925,1.570796327,0.133052925,0,0,0,0,-0.00164,-0.496492191,0.913744626,-0.457292313,0.00164,-0.00164,-0.496492191,0.913744626,-0.457292313,0.00164,1.570796327,-0.133052925,0,0,0,0,0
0,-0.123182925,1.570796327,0.122682925,0,0,0,0,-0.00205,-0.498442191,0.924014626,-0.462532313,0.00205,-0.00205,-0.498442191,0.924014626,-0.462532313,0.00205,1.570796327,-0.122682925,0,0,0,0,0
0,-0.112912925,1.570796327,0.112312925,0,0,0,0,-0.00246,-0.500392191,0.934284626,-0.467772313,0.00246,-0.00246,-0.500392191,0.934284626,-0.467772313,0.00246,1.570796327,-0.112312925,0,0,0,0,0
0,-0.102642925,1.570796327,0.101942925,0,0,0,0,-0.00287,-0.502342191,0.944554626,-0.473012313,0.00287,-0.00287,-0.502342191,0.944554626,-0.473012313,0.00287,1.570796327,-0.101942925,0,0,0,0,0
0,-0.092372925,1.570796327,0.091572925,0,0,0,0,-0.00328,-0.504292191,0.954824626,-0.478252313,0.00328,-0.00328,-0.504292191,0.954824626,-0.478252313,0.00328,1.570796327,-0.091572925,0,0,0,0,0
0,-0.082102925,1.570796327,0.081202925,0,0,0,0,-0.00369,-0.506242191,0.965094626,-0.483492313,0.00369,-0.00369,-0.506242191,0.965094626,-0.483492313,0.00369,1.570796327,-0.081202925,0,0,0,0,0
0,-0.071832925,1.570796327,0.070832925,0,0,0,0,-0.0041,-0.508192191,0.975364626,-0.488732313,0.0041,-0.0041,-0.508192191,0.975364626,-0.488732313,0.0041,1.570796327,-0.070832925,0,0,0,0,0
0,-0.061562925,1.570796327,0.060462925,0,0,0,0,-0.00451,-0.510142191,0.985634626,-0.493972313,0.00451,-0.00451,-0.510142191,0.985634626,-0.493972313,0.00451,1.570796327,-0.060462925,0,0,0,0,0
0,-0.051292925,1.570796327,0.050092925,0,0,0,0,-0.00492,-0.512092191,0.995904626,-0.499212313,0.00492,-0.00492,-0.512092191,0.995904626,-0.499212313,0.00492,1.570796327,-0.050092925,0,0,0,0,0
0,-0.041022925,1.570796327,0.039722925,0,0,0,0,-0.00533,-0.514042191,1.006174626,-0.504452313,0.00533,-0.00533,-0.514042191,1.006174626,-0.504452313,0.00533,1.570796327,-0.039722925,0,0,0,0,0
0,-0.030752925,1.570796327,0.029352925,0,0,0,0,-0.00574,-0.515992191,1.016444626,-0.509692313,0.00574,-0.00574,-0.515992191,1.016444626,-0.509692313,0.00574,1.570796327,-0.029352925,0,0,0,0,0
0,-0.020482925,1.570796327,0.018982925,0,0,0,0,-0.00615,-0.517942191,1.026714626,-0.514932313,0.00615,-0.00615,-0.517942191,1.026714626,-0.514932313,0.00615,1.570796327,-0.018982925,0,0,0,0,0
0,-0.010212925,1.570796327,0.008612925,0,0,0,0,-0.00656,-0.519892191,1.036984626,-0.520172313,0.00656,-0.00656,-0.519892191,1.036984626,-0.520172313,0.00656,1.570796327,-0.008612925,0,0,0,0,0
0,-0.010212925,1.570796327,0.008612925,0,0,0,0,-0.00697,-0.521842191,1.036984626,-0.520172313,0.00697,-0.00697,-0.521842191,1.036984626,-0.520172313,0.00697,1.570796327,-0.008612925,0,0,0,0,0
0,-0.164262925,1.570796327,0.164162925,0,0,0,0,-0.00062,-0.490642191,0.882934626,-0.441572313,0.00062,-0.00062,-0.490642191,0.882934626,-0.441572313,0.00062,1.570796327,-0.164162925,0,0,0,0,0
0,-0.153992925,1.570796327,0.153792925,0,0,0,0,-0.00124,-0.492592191,0.893204626,-0.446812313,0.00124,-0.00124,-0.492592191,0.893204626,-0.446812313,0.00124,1.570796327,-0.153792925,0,0,0,0,0
0,-0.143722925,1.570796327,0.143422925,0,0,0,0,-0.00186,-0.494542191,0.903474626,-0.452052313,0.00186,-0.00186,-0.494542191,0.903474626,-0.452052313,0.00186,1.570796327,-0.143422925,0,0,0,0,0
0,-0.133452925,1.570796327,0.133052925,0,0,0,0,-0.00248,-0.496492191,0.913744626,-0.457292313,0.00248,-0.00248,-0.496492191,0.913744626,-0.457292313,0.00248,1.570796327,-0.133052925,0,0,0,0,0
0,-0.123182925,1.570796327,0.122682925,0,0,0,0,-0.0031,-0.498442191,0.924014626,-0.462532313,0.0031,-0.0031,-0.498442191,0.924014626,-0.462532313,0.0031,1.570796327,-0.122682925,0,0,0,0,0
0,-0.112912925,1.570796327,0.112312925,0,0,0,0,-0.00372,-0.500392191,0.934284626,-0.467772313,0.00372,-0.00372,-0.500392191,0.934284626,-0.467772313,0.00372,1.570796327,-0.112312925,0,0,0,0,0
0,-0.102642925,1.570796327,0.101942925,0,0,0,0,-0.00434,-0.502342191,0.944554626,-0.473012313,0.00434,-0.00434,-0.502342191,0.944554626,-0.473012313,0.00434,1.570796327,-0.101942925,0,0,0,0,0
0,-0.092372925,1.570796327,0.091572925,0,0,0,0,-0.00496,-0.504292191,0.954824626,-0.478252313,0.00496,-0.00496,-0.504292191,0.954824626,-0.478252313,0.00496,1.570796327,-0.091572925,0,0,0,0,0
0,-0.082102925,1.570796327,0.081202925,0,0,0,0,-0.00558,-0.506242191,0.965094626,-0.483492313,0.00558,-0.00558,-0.506242191,0.965094626,-0.483492313,0.00558,1.570796327,-0.081202925,0,0,0,0,0
0,-0.071832925,1.570796327,0.070832925,0,0,0,0,-0.0062,-0.508192191,0.975364626,-0.488732313,0.0062,-0.0062,-0.508192191,0.975364626,-0.488732313,0.0062,1.570796327,-0.070832925,0,0,0,0,0
0,-0.061562925,1.570796327,0.060462925,0,0,0,0,-0.00682,-0.510142191,0.985634626,-0.493972313,0.00682,-0.00682,-0.510142191,0.985634626,-0.493972313,0.00682,1.570796327,-0.060462925,0,0,0,0,0
0,-0.051292925,1.570796327,0.050092925,0,0,0,0,-0.00744,-0.512092191,0.995904626,-0.499212313,0.00744,-0.00744,-0.512092191,0.995904626,-0.499212313,0.00744,1.570796327,-0.050092925,0,0,0,0,0
0,-0.041022925,1.570796327,0.039722925,0,0,0,0,-0.00806,-0.514042191,1.006174626,-0.504452313,0.00806,-0.00806,-0.514042191,1.006174626,-0.504452313,0.00806,1.570796327,-0.039722925,0,0,0,0,0
0,-0.030752925,1.570796327,0.029352925,0,0,0,0,-0.00868,-0.515992191,1.016444626,-0.509692313,0.00868,-0.00868,-0.515992191,1.016444626,-0.509692313,0.00868,1.570796327,-0.029352925,0,0,0,0,0
0,-0.020482925,1.570796327,0.018982925,0,0,0,0,-0.0093,-0.517942191,1.026714626,-0.514932313,0.0093,-0.0093,-0.517942191,1.026714626,-0.514932313,0.0093,1.570796327,-0.018982925,0,0,0,0,0
0,-0.010212925,1.570796327,0.008612925,0,0,0,0,-0.00992,-0.519892191,1.036984626,-0.520172313,0.00992,-0.00992,-0.519892191,1.036984626,-0.520172313,0.00992,1.570796327,-0.008612925,0,0,0,0,0
0,-0.010212925,1.570796327,0.008612925,0,0,0,0,-0.00992,-0.521842191,1.036984626,-0.520172313,0.00992,-0.00992,-0.521842191,1.036984626,-0.520172313,0.00992,1.570796327,-0.008612925,0,0,0,0,0
0,-0.164262925,1.570796327,0.164162925,0,0,0,0,-0.00092,-0.490642191,0.882824626,-0.441572313,0.00092,-0.00092,-0.490642191,0.882824626,-0.441572313,0.00092,1.570796327,-0.164162925,0,0,0,0,0
0,-0.153992925,1.570796327,0.153792925,0,0,0,0,-0.00184,-0.492592191,0.892984626,-0.446812313,0.00184,-0.00184,-0.492592191,0.892984626,-0.446812313,0.00184,1.570796327,-0.153792925,0,0,0,0,0
0,-0.143722925,1.570796327,0.143422925,0,0,0,0,-0.00276,-0.494542191,0.903144626,-0.452052313,0.00276,-0.00276,-0.494542191,0.903144626,-0.452052313,0.00276,1.570796327,-0.143422925,0,0,0,0,0
0,-0.133452925,1.570796327,0.133052925,0,0,0,0,-0.00368,-0.496492191,0.913304626,-0.457292313,0.00368,-0.00368,-0.496492191,0.913304626,-0.457292313,0.00368,1.570796327,-0.133052925,0,0,0,0,0
0,-0.123182925,1.570796327,0.122682925,0,0,0,0,-0.0046,-0.498442191,0.923464626,-0.462532313,0.0046,-0.0046,-0.498442191,0.923464626,-0.462532313,0.0046,1.570796327,-0.122682925,0,0,0,0,0
0,-0.112912925,1.570796327,0.112312925,0,0,0,0,-0.00552,-0.500392191,0.933624626,-0.467772313,0.00552,-0.00552,-0.500392191,0.933624626,-0.467772313,0.00552,1.570796327,-0.112312925,0,0,0,0,0
0,-0.102642925,1.570796327,0.101942925,0,0,0,0,-0.00644,-0.502342191,0.943784626,-0.473012313,0.00644,-0.00644,-0.502342191,0.943784626,-0.473012313,0.00644,1.570796327,-0.101942925,0,0,0,0,0
0,-0.092372925,1.570796327,0.091572925,0,0,0,0,-0.00736,-0.504292191,0.953944626,-0.478252313,0.00736,-0.00736,-0.504292191,0.953944626,-0.478252313,0.00736,1.570796327,-0.091572925,0,0,0,0,0
0,-0.082102925,1.570796327,0.081202925,0,0,0,0,-0.00828,-0.506242191,0.964104626,-0.483492313,0.00828,-0.00828,-0.506242191,0.964104626,-0.483492313,0.00828,1.570796327,-0.081202925,0,0,0,0,0
0,-0.071832925,1.570796327,0.070832925,0,0,0,0,-0.0092,-0.508192191,0.974264626,-0.488732313,0.0092,-0.0092,-0.508192191,0.974264626,-0.488732313,0.0092,1.570796327,-0.070832925,0,0,0,0,0
0,-0.061562925,1.570796327,0.060462925,0,0,0,0,-0.01012,-0.510142191,0.984424626,-0.493972313,0.01012,-0.01012,-0.510142191,0.984424626,-0.493972313,0.01012,1.570796327,-0.060462925,0,0,0,0,0
0,-0.051292925,1.570796327,0.050092925,0,0,0,0,-0.01104,-0.512092191,0.994584626,-0.499212313,0.01104,-0.01104,-0.512092191,0.994584626,-0.499212313,0.01104,1.570796327,-0.050092925,0,0,0,0,0
0,-0.041022925,1.570796327,0.039722925,0,0,0,0,-0.01196,-0.514042191,1.004744626,-0.504452313,0.01196,-0.01196,-0.514042191,1.004744626,-0.504452313,0.01196,1.570796327,-0.039722925,0,0,0,0,0
0,-0.030752925,1.570796327,0.029352925,0,0,0,0,-0.01288,-0.515992191,1.014904626,-0.509692313,0.01288,-0.01288,-0.515992191,1.014904626,-0.509692313,0.01288,1.570796327,-0.029352925,0,0,0,0,0
0,-0.020482925,1.570796327,0.018982925,0,0,0,0,-0.0138,-0.517942191,1.025064626,-0.514932313,0.0138,-0.0138,-0.517942191,1.025064626,-0.514932313,0.0138,1.570796327,-0.018982925,0,0,0,0,0
0,-0.010212925,1.570796327,0.008612925,0,0,0,0,-0.01472,-0.519892191,1.035224626,-0.520172313,0.01472,-0.01472,-0.519892191,1.035224626,-0.520172313,0.01472,1.570796327,-0.008612925,0,0,0,0,0
0,-0.010212925,1.570796327,0.008612925,0,0,0,0,-0.01564,-0.521842191,1.045384626,-0.520172313,0.01564,-0.01564,-0.521842191,1.045384626,-0.520172313,0.01564,1.570796327,-0.008612925,0,0,0,0,0
0,-0.164262925,1.570796327,0.164162925,0,0,0,0,-0.00123,-0.490542191,0.882824626,-0.441572313,0.00123,-0.00123,-0.490542191,0.882824626,-0.441572313,0.00123,1.570796327,-0.164162925,0,0,0,0,0
0,-0.153992925,1.570796327,0.153792925,0,0,0,0,-0.00246,-0.492392191,0.892984626,-0.446812313,0.00246,-0.00246,-0.492392191,0.892984626,-0.446812313,0.00246,1.570796327,-0.153792925,0,0,0,0,0
0,-0.143722925,1.570796327,0.143422925,0,0,0,0,-0.00369,-0.494242191,0.903144626,-0.452052313,0.00369,-0.00369,-0.494242191,0.903144626,-0.452052313,0.00369,1.570796327,-0.143422925,0,0,0,0,0
0,-0.133452925,1.570796327,0.133052925,0,0,0,0,-0.00492,-0.496092191,0.913304626,-0.457292313,0.00492,-0.00492,-0.496092191,0.913304626,-0.457292313,0.00492,1.570796327,-0.133052925,0,0,0,0,0
0,-0.123182925,1.570796327,0.122682925,0,0,0,0,-0.00615,-0.497942191,0.923464626,-0.462532313,0.00615,-0.00615,-0.497942191,0.923464626,-0.462532313,0.00615,1.570796327,-0.122682925,0,0,0,0,0
0,-0.112912925,1.570796327,0.112312925,0,0,0,0,-0.00738,-0.499792191,0.933624626,-0.467772313,0.00738,-0.00738,-0.499792191,0.933624626,-0.467772313,0.00738,1.570796327,-0.112312925,0,0,0,0,0
0,-0.102642925,1.570796327,0.101942925,0,0,0,0,-0.00861,-0.501642191,0.943784626,-0.473012313,0.00861,-0.00861,-0.501642191,0.943784626,-0.473012313,0.00861,1.570796327,-0.101942925,0,0,0,0,0
0,-0.092372925,1.570796327,0.091572925,0,0,0,0,-0.00984,-0.503492191,0.953944626,-0.478252313,0.00984,-0.00984,-0.503492191,0.953944626,-0.478252313,0.00984,1.570796327,-0.091572925,0,0,0,0,0
0,-0.082102925,1.570796327,0.081202925,0,0,0,0,-0.01107,-0.505342191,0.964104626,-0.483492313,0.01107,-0.01107,-0.505342191,0.964104626,-0.483492313,0.01107,1.570796327,-0.081202925,0,0,0,0,0
0,-0.071832925,1.570796327,0.070832925,0,0,0,0,-0.0123,-0.507192191,0.974264626,-0.488732313,0.0123,-0.0123,-0.507192191,0.974264626,-0.488732313,0.0123,1.570796327,-0.070832925,0,0,0,0,0
0,-0.061562925,1.570796327,0.060462925,0,0,0,0,-0.01353,-0.509042191,0.984424626,-0.493972313,0.01353,-0.01353,-0.509042191,0.984424626,-0.493972313,0.01353,1.570796327,-0.060462925,0,0,0,0,0
0,-0.051292925,1.570796327,0.050092925,0,0,0,0,-0.01476,-0.510892191,0.994584626,-0.499212313,0.01476,-0.01476,-0.510892191,0.994584626,-0.499212313,0.01476,1.570796327,-0.050092925,0,0,0,0,0
0,-0.041022925,1.570796327,0.039722925,0,0,0,0,-0.01599,-0.512742191,1.004744626,-0.504452313,0.01599,-0.01599,-0.512742191,1.004744626,-0.504452313,0.01599,1.570796327,-0.039722925,0,0,0,0,0
0,-0.030752925,1.570796327,0.029352925,0,0,0,0,-0.01722,-0.514592191,1.014904626,-0.509692313,0.01722,-0.01722,-0.514592191,1.014904626,-0.509692313,0.01722,1.570796327,-0.029352925,0,0,0,0,0
0,-0.020482925,1.570796327,0.018982925,0,0,0,0,-0.01845,-0.516442191,1.025064626,-0.514932313,0.01845,-0.01845,-0.516442191,1.025064626,-0.514932313,0.01845,1.570796327,-0.018982925,0,0,0,0,0
0,-0.010212925,1.570796327,0.008612925,0,0,0,0,-0.01968,-0.518292191,1.035224626,-0.520172313,0.01968,-0.01968,-0.518292191,1.035224626,-0.520172313,0.01968,1.570796327,-0.008612925,0,0,0,0,0
0,-0.010212925,1.570796327,0.008612925,0,0,0,0,-0.02091,-0.518292191,1.045384626,-0.520172313,0.02091,-0.02091,-0.518292191,1.045384626,-0.520172313,0.02091,1.570796327,-0.008612925,0,0,0,0,0
0,-0.164262925,1.570796327,0.164162925,0,0,0,0,-0.00154,-0.490442191,0.882824626,-0.441672313,0.00154,-0.00154,-0.490442191,0.882824626,-0.441672313,0.00154,1.570796327,-0.164162925,0,0,0,0,0
0,-0.153992925,1.570796327,0.153792925,0,0,0,0,-0.00308,-0.492192191,0.892984626,-0.447012313,0.00308,-0.00308,-0.492192191,0.892984626,-0.447012313,0.00308,1.570796327,-0.153792925,0,0,0,0,0
0,-0.143722925,1.570796327,0.143422925,0,0,0,0,-0.00462,-0.493942191,0.903144626,-0.452352313,0.00462,-0.00462,-0.493942191,0.903144626,-0.452352313,0.00462,1.570796327,-0.143422925,0,0,0,0,0
0,-0.133452925,1.570796327,0.133052925,0,0,0,0,-0.00616,-0.495692191,0.913304626,-0.457692313,0.00616,-0.00616,-0.495692191,0.913304626,-0.457692313,0.00616,1.570796327,-0.133052925,0,0,0,0,0
0,-0.123182925,1.570796327,0.122682925,0,0,0,0,-0.0077,-0.497442191,0.923464626,-0.463032313,0.0077,-0.0077,-0.497442191,0.923464626,-0.463032313,0.0077,1.570796327,-0.122682925,0,0,0,0,0
0,-0.112912925,1.570796327,0.112312925,0,0,0,0,-0.00924,-0.499192191,0.933624626,-0.468372313,0.00924,-0.00924,-0.499192191,0.933624626,-0.468372313,0.00924,1.570796327,-0.112312925,0,0,0,0,0
0,-0.102642925,1.570796327,0.101942925,0,0,0,0,-0.01078,-0.500942191,0.943784626,-0.473712313,0.01078,-0.01078,-0.500942191,0.943784626,-0.473712313,0.01078,1.570796327,-0.101942925,0,0,0,0,0
0,-0.092372925,1.570796327,0.091572925,0,0,0,0,-0.01232,-0.502692191,0.953944626,-0.479052313,0.01232,-0.01232,-0.502692191,0.953944626,-0.479052313,0.01232,1.570796327,-0.091572925,0,0,0,0,0
0,-0.082102925,1.570796327,0.081202925,0,0,0,0,-0.01386,-0.504442191,0.964104626,-0.484392313,0.01386,-0.01386,-0.504442191,0.964104626,-0.484392313,0.01386,1.570796327,-0.081202925,0,0,0,0,0
0,-0.071832925,1.570796327,0.070832925,0,0,0,0,-0.0154,-0.506192191,0.974264626,-0.489732313,0.0154,-0.0154,-0.506192191,0.974264626,-0.489732313,0.0154,1.570796327,-0.070832925,0,0,0,0,0
0,-0.061562925,1.570796327,0.060462925,0,0,0,0,-0.01694,-0.507942191,0.984424626,-0.495072313,0.01694,-0.01694,-0.507942191,0.984424626,-0.495072313,0.01694,1.570796327,-0.060462925,0,0,0,0,0
0,-0.051292925,1.570796327,0.050092925,0,0,0,0,-0.01848,-0.509692191,0.994584626,-0.500412313,0.01848,-0.01848,-0.509692191,0.994584626,-0.500412313,0.01848,1.570796327,-0.050092925,0,0,0,0,0
0,-0.041022925,1.570796327,0.039722925,0,0,0,0,-0.02002,-0.511442191,1.004744626,-0.505752313,0.02002,-0.02002,-0.511442191,1.004744626,-0.505752313,0.02002,1.570796327,-0.039722925,0,0,0,0,0
0,-0.030752925,1.570796327,0.029352925,0,0,0,0,-0.02156,-0.513192191,1.014904626,-0.511092313,0.02156,-0.02156,-0.513192191,1.014904626,-0.511092313,0.02156,1.570796327,-0.029352925,0,0,0,0,0
0,-0.020482925,1.570796327,0.018982925,0,0,0,0,-0.0231,-0.514942191,1.025064626,-0.516432313,0.0231,-0.0231,-0.514942191,1.025064626,-0.516432313,0.0231,1.570796327,-0.018982925,0,0,0,0,0
0,-0.010212925,1.570796327,0.008612925,0,0,0,0,-0.02464,-0.516692191,1.035224626,-0.521772313,0.02464,-0.02464,-0.516692191,1.035224626,-0.521772313,0.02464,1.570796327,-0.008612925,0,0,0,0,0
0,-0.010212925,1.570796327,0.008612925,0,0,0,0,-0.02464,-0.516692191,1.045384626,-0.521772313,0.02464,-0.02464,-0.516692191,1.045384626,-0.521772313,0.02464,1.570796327,-0.008612925,0,0,0,0,0
0,-0.164262925,1.570796327,0.164162925,0,0,0,0,-0.00195,-0.490332191,0.882724626,-0.441772313,0.00195,-0.00195,-0.490332191,0.882724626,-0.441772313,0.00195,1.570796327,-0.164162925,0,0,0,0,0
0,-0.153992925,1.570796327,0.153792925,0,0,0,0,-0.0039,-0.491972191,0.892784626,-0.447212313,0.0039,-0.0039,-0.491972191,0.892784626,-0.447212313,0.0039,1.570796327,-0.153792925,0,0,0,0,0
0,-0.143722925,1.570796327,0.143422925,0,0,0,0,-0.00585,-0.493612191,0.902844626,-0.452652313,0.00585,-0.00585,-0.493612191,0.902844626,-0.452652313,0.00585,1.570796327,-0.143422925,0,0,0,0,0
0,-0.133452925,1.570796327,0.133052925,0,0,0,0,-0.0078,-0.495252191,0.912904626,-0.458092313,0.0078,-0.0078,-0.495252191,0.912904626,-0.458092313,0.0078,1.570796327,-0.133052925,0,0,0,0,0
0,-0.123182925,1.570796327,0.122682925,0,0,0,0,-0.00975,-0.496892191,0.922964626,-0.463532313,0.00975,-0.00975,-0.496892191,0.922964626,-0.463532313,0.00975,1.570796327,-0.122682925,0,0,0,0,0
0,-0.112912925,1.570796327,0.112312925,0,0,0,0,-0.0117,-0.498532191,0.933024626,-0.468972313,0.0117,-0.0117,-0.498532191,0.933024626,-0.468972313,0.0117,1.570796327,-0.112312925,0,0,0,0,0
0,-0.102642925,1.570796327,0.101942925,0,0,0,0,-0.01365,-0.500172191,0.943084626,-0.474412313,0.01365,-0.01365,-0.500172191,0.943084626,-0.474412313,0.01365,1.570796327,-0.101942925,0,0,0,0,0
0,-0.092372925,1.570796327,0.091572925,0,0,0,0,-0.0156,-0.501812191,0.953144626,-0.479852313,0.0156,-0.0156,-0.501812191,0.953144626,-0.479852313,0.0156,1.570796327,-0.091572925,0,0,0,0,0
0,-0.082102925,1.570796327,0.081202925,0,0,0,0,-0.01755,-0.503452191,0.963204626,-0.485292313,0.01755,-0.01755,-0.503452191,0.963204626,-0.485292313,0.01755,1.570796327,-0.081202925,0,0,0,0,0
0,-0.071832925,1.570796327,0.070832925,0,0,0,0,-0.0195,-0.505092191,0.973264626,-0.490732313,0.0195,-0.0195,-0.505092191,0.973264626,-0.490732313,0.0195,1.570796327,-0.070832925,0,0,0,0,0
0,-0.061562925,1.570796327,0.060462925,0,0,0,0,-0.02145,-0.506732191,0.983324626,-0.496172313,0.02145,-0.02145,-0.506732191,0.983324626,-0.496172313,0.02145,1.570796327,-0.060462925,0,0,0,0,0
0,-0.051292925,1.570796327,0.050092925,0,0,0,0,-0.0234,-0.508372191,0.993384626,-0.501612313,0.0234,-0.0234,-0.508372191,0.993384626,-0.501612313,0.0234,1.570796327,-0.050092925,0,0,0,0,0
0,-0.041022925,1.570796327,0.039722925,0,0,0,0,-0.02535,-0.510012191,1.003444626,-0.507052313,0.02535,-0.02535,-0.510012191,1.003444626,-0.507052313,0.02535,1.570796327,-0.039722925,0,0,0,0,0
0,-0.030752925,1.570796327,0.029352925,0,0,0,0,-0.0273,-0.511652191,1.013504626,-0.512492313,0.0273,-0.0273,-0.511652191,1.013504626,-0.512492313,0.0273,1.570796327,-0.029352925,0,0,0,0,0
0,-0.020482925,1.570796327,0.018982925,0,0,0,0,-0.02925,-0.513292191,1.023564626,-0.517932313,0.02925,-0.02925,-0.513292191,1.023564626,-0.517932313,0.02925,1.570796327,-0.018982925,0,0,0,0,0
0,-0.010212925,1.570796327,0.008612925,0,0,0,0,-0.0312,-0.514932191,1.033624626,-0.523372313,0.0312,-0.0312,-0.514932191,1.033624626,-0.523372313,0.0312,1.570796327,-0.008612925,0,0,0,0,0
0,-0.010212925,1.570796327,0.008612925,0,0,0,0,-0.03315,-0.516572191,1.043684626,-0.528812313,0.03315,-0.03315,-0.516572191,1.043684626,-0.528812313,0.03315,1.570796327,-0.008612925,0,0,0,0,0
0,-0.164262925,1.570796327,0.164162925,0,0,0,0,-0.00287,-0.490132191,0.882524626,-0.441772313,0.00287,-0.00287,-0.490132191,0.882524626,-0.441772313,0.00287,1.570796327,-0.164162925,0,0,0,0,0
0,-0.153992925,1.570796327,0.153792925,0,0,0,0,-0.00574,-0.491572191,0.892384626,-0.447212313,0.00574,-0.00574,-0.491572191,0.892384626,-0.447212313,0.00574,1.570796327,-0.153792925,0,0,0,0,0
0,-0.143722925,1.570796327,0.143422925,0,0,0,0,-0.00861,-0.493012191,0.902244626,-0.452652313,0.00861,-0.00861,-0.493012191,0.902244626,-0.452652313,0.00861,1.570796327,-0.143422925,0,0,0,0,0
0,-0.133452925,1.570796327,0.133052925,0,0,0,0,-0.01148,-0.494452191,0.912104626,-0.458092313,0.01148,-0.01148,-0.494452191,0.912104626,-0.458092313,0.01148,1.570796327,-0.133052925,0,0,0,0,0
0,-0.123182925,1.570796327,0.122682925,0,0,0,0,-0.01435,-0.495892191,0.921964626,-0.463532313,0.01435,-0.01435,-0.495892191,0.921964626,-0.463532313,0.01435,1.570796327,-0.122682925,0,0,0,0,0
0,-0.112912925,1.570796327,0.112312925,0,0,0,0,-0.01722,-0.497332191,0.931824626,-0.468972313,0.01722,-0.01722,-0.497332191,0.931824626,-0.468972313,0.01722,1.570796327,-0.112312925,0,0,0,0,0
0,-0.102642925,1.570796327,0.101942925,0,0,0,0,-0.02009,-0.498772191,0.941684626,-0.474412313,0.02009,-0.02009,-0.498772191,0.941684626,-0.474412313,0.02009,1.570796327,-0.101942925,0,0,0,0,0
0,-0.092372925,1.570796327,0.091572925,0,0,0,0,-0.02296,-0.500212191,0.951544626,-0.479852313,0.02296,-0.02296,-0.500212191,0.951544626,-0.479852313,0.02296,1.570796327,-0.091572925,0,0,0,0,0
0,-0.082102925,1.570796327,0.081202925,0,0,0,0,-0.02583,-0.501652191,0.961404626,-0.485292313,0.02583,-0.02583,-0.501652191,0.961404626,-0.485292313,0.02583,1.570796327,-0.081202925,0,0,0,0,0
0,-0.071832925,1.570796327,0.070832925,0,0,0,0,-0.0287,-0.503092191,0.971264626,-0.490732313,0.0287,-0.0287,-0.503092191,0.971264626,-0.490732313,0.0287,1.570796327,-0.070832925,0,0,0,0,0
0,-0.061562925,1.570796327,0.060462925,0,0,0,0,-0.03157,-0.504532191,0.981124626,-0.496172313,0.03157,-0.03157,-0.504532191,0.981124626,-0.496172313,0.03157,1.570796327,-0.060462925,0,0,0,0,0
0,-0.051292925,1.570796327,0.050092925,0,0,0,0,-0.03444,-0.505972191,0.990984626,-0.501612313,0.03444,-0.03444,-0.505972191,0.990984626,-0.501612313,0.03444,1.570796327,-0.050092925,0,0,0,0,0
0,-0.041022925,1.570796327,0.039722925,0,0,0,0,-0.03731,-0.507412191,1.000844626,-0.507052313,0.03731,-0.03731,-0.507412191,1.000844626,-0.507052313,0.03731,1.570796327,-0.039722925,0,0,0,0,0
0,-0.030752925,1.570796327,0.029352925,0,0,0,0,-0.04018,-0.508852191,1.010704626,-0.512492313,0.04018,-0.04018,-0.508852191,1.010704626,-0.512492313,0.04018,1.570796327,-0.029352925,0,0,0,0,0
0,-0.020482925,1.570796327,0.018982925,0,0,0,0,-0.04305,-0.510292191,1.020564626,-0.517932313,0.04305,-0.04305,-0.510292191,1.020564626,-0.517932313,0.04305,1.570796327,-0.018982925,0,0,0,0,0
0,-0.010212925,1.570796327,0.008612925,0,0,0,0,-0.04592,-0.511732191,1.030424626,-0.523372313,0.04592,-0.04592,-0.511732191,1.030424626,-0.523372313,0.04592,1.570796327,-0.008612925,0,0,0,0,0
0,-0.010212925,1.570796327,0.008612925,0,0,0,0,-0.04879,-0.511732191,1.030424626,-0.528812313,0.04879,-0.04879,-0.511732191,1.030424626,-0.528812313,0.04879,1.570796327,-0.008612925,0,0,0,0,0
0,-0.164262925,1.570796327,0.164162925,0,0,0,0,-0.0037,-0.489922191,0.882414626,-0.441772313,0.0037,-0.0037,-0.489922191,0.882414626,-0.441772313,0.0037,1.570796327,-0.164162925,0,0,0,0,0
0,-0.153992925,1.570796327,0.153792925,0,0,0,0,-0.0074,-0.491152191,0.892164626,-0.447212313,0.0074,-0.0074,-0.491152191,0.892164626,-0.447212313,0.0074,1.570796327,-0.153792925,0,0,0,0,0
0,-0.143722925,1.570796327,0.143422925,0,0,0,0,-0.0111,-0.492382191,0.901914626,-0.452652313,0.0111,-0.0111,-0.492382191,0.901914626,-0.452652313,0.0111,1.570796327,-0.143422925,0,0,0,0,0
0,-0.133452925,1.570796327,0.133052925,0,0,0,0,-0.0148,-0.493612191,0.911664626,-0.458092313,0.0148,-0.0148,-0.493612191,0.911664626,-0.458092313,0.0148,1.570796327,-0.133052925,0,0,0,0,0
0,-0.123182925,1.570796327,0.122682925,0,0,0,0,-0.0185,-0.494842191,0.921414626,-0.463532313,0.0185,-0.0185,-0.494842191,0.921414626,-0.463532313,0.0185,1.570796327,-0.122682925,0,0,0,0,0
0,-0.112912925,1.570796327,0.112312925,0,0,0,0,-0.0222,-0.496072191,0.931164626,-0.468972313,0.0222,-0.0222,-0.496072191,0.931164626,-0.468972313,0.0222,1.570796327,-0.112312925,0,0,0,0,0
0,-0.102642925,1.570796327,0.101942925,0,0,0,0,-0.0259,-0.497302191,0.940914626,-0.474412313,0.0259,-0.0259,-0.497302191,0.940914626,-0.474412313,0.0259,1.570796327,-0.101942925,0,0,0,0,0
0,-0.092372925,1.570796327,0.091572925,0,0,0,0,-0.0296,-0.498532191,0.950664626,-0.479852313,0.0296,-0.0296,-0.498532191,0.950664626,-0.479852313,0.0296,1.570796327,-0.091572925,0,0,0,0,0
0,-0.082102925,1.570796327,0.081202925,0,0,0,0,-0.0333,-0.499762191,0.960414626,-0.485292313,0.0333,-0.0333,-0.499762191,0.960414626,-0.485292313,0.0333,1.570796327,-0.081202925,0,0,0,0,0
0,-0.071832925,1.570796327,0.070832925,0,0,0,0,-0.037,-0.500992191,0.970164626,-0.490732313,0.037,-0.037,-0.500992191,0.970164626,-0.490732313,0.037,1.570796327,-0.070832925,0,0,0,0,0
0,-0.061562925,1.570796327,0.060462925,0,0,0,0,-0.0407,-0.502222191,0.979914626,-0.496172313,0.0407,-0.0407,-0.502222191,0.979914626,-0.496172313,0.0407,1.570796327,-0.060462925,0,0,0,0,0
0,-0.051292925,1.570796327,0.050092925,0,0,0,0,-0.0444,-0.503452191,0.989664626,-0.501612313,0.0444,-0.0444,-0.503452191,0.989664626,-0.501612313,0.0444,1.570796327,-0.050092925,0,0,0,0,0
0,-0.041022925,1.570796327,0.039722925,0,0,0,0,-0.0481,-0.504682191,0.999414626,-0.507052313,0.0481,-0.0481,-0.504682191,0.999414626,-0.507052313,0.0481,1.570796327,-0.039722925,0,0,0,0,0
0,-0.030752925,1.570796327,0.029352925,0,0,0,0,-0.0518,-0.505912191,1.009164626,-0.512492313,0.0518,-0.0518,-0.505912191,1.009164626,-0.512492313,0.0518,1.570796327,-0.029352925,0,0,0,0,0
0,-0.020482925,1.570796327,0.018982925,0,0,0,0,-0.0555,-0.507142191,1.018914626,-0.517932313,0.0555,-0.0555,-0.507142191,1.018914626,-0.517932313,0.0555,1.570796327,-0.018982925,0,0,0,0,0
0,-0.010212925,1.570796327,0.008612925,0,0,0,0,-0.0592,-0.508372191,1.028664626,-0.523372313,0.0592,-0.0592,-0.508372191,1.028664626,-0.523372313,0.0592,1.570796327,-0.008612925,0,0,0,0,0
0,-0.010212925,1.570796327,0.008612925,0,0,0,0,-0.0592,-0.509602191,1.038414626,-0.528812313,0.0592,-0.0592,-0.509602191,1.038414626,-0.528812313,0.0592,1.570796327,-0.008612925,0,0,0,0,0
0,-0.164262925,1.570796327,0.164162925,0,0,0,0,-0.00534,-0.489312191,0.881904626,-0.441872313,0.00534,-0.00534,-0.489312191,0.881904626,-0.441872313,0.00534,1.570796327,-0.164162925,0,0,0,0,0
0,-0.153992925,1.570796327,0.153792925,0,0,0,0,-0.01068,-0.489932191,0.891144626,-0.447412313,0.01068,-0.01068,-0.489932191,0.891144626,-0.447412313,0.01068,1.570796327,-0.153792925,0,0,0,0,0
0,-0.143722925,1.570796327,0.143422925,0,0,0,0,-0.01602,-0.490552191,0.900384626,-0.452952313,0.01602,-0.01602,-0.490552191,0.900384626,-0.452952313,0.01602,1.570796327,-0.143422925,0,0,0,0,0
0,-0.133452925,1.570796327,0.133052925,0,0,0,0,-0.02136,-0.491172191,0.909624626,-0.458492313,0.02136,-0.02136,-0.491172191,0.909624626,-0.458492313,0.02136,1.570796327,-0.133052925,0,0,0,0,0
0,-0.123182925,1.570796327,0.122682925,0,0,0,0,-0.0267,-0.491792191,0.918864626,-0.464032313,0.0267,-0.0267,-0.491792191,0.918864626,-0.464032313,0.0267,1.570796327,-0.122682925,0,0,0,0,0
0,-0.112912925,1.570796327,0.112312925,0,0,0,0,-0.03204,-0.492412191,0.928104626,-0.469572313,0.03204,-0.03204,-0.492412191,0.928104626,-0.469572313,0.03204,1.570796327,-0.112312925,0,0,0,0,0
0,-0.102642925,1.570796327,0.101942925,0,0,0,0,-0.03738,-0.493032191,0.937344626,-0.475112313,0.03738,-0.03738,-0.493032191,0.937344626,-0.475112313,0.03738,1.570796327,-0.101942925,0,0,0,0,0
0,-0.092372925,1.570796327,0.091572925,0,0,0,0,-0.04272,-0.493652191,0.946584626,-0.480652313,0.04272,-0.04272,-0.493652191,0.946584626,-0.480652313,0.04272,1.570796327,-0.091572925,0,0,0,0,0
0,-0.082102925,1.570796327,0.081202925,0,0,0,0,-0.04806,-0.494272191,0.955824626,-0.486192313,0.04806,-0.04806,-0.494272191,0.955824626,-0.486192313,0.04806,1.570796327,-0.081202925,0,0,0,0,0
0,-0.071832925,1.570796327,0.070832925,0,0,0,0,-0.0534,-0.494892191,0.965064626,-0.491732313,0.0534,-0.0534,-0.494892191,0.965064626,-0.491732313,0.0534,1.570796327,-0.070832925,0,0,0,0,0
0,-0.061562925,1.570796327,0.060462925,0,0,0,0,-0.05874,-0.495512191,0.974304626,-0.497272313,0.05874,-0.05874,-0.495512191,0.974304626,-0.497272313,0.05874,1.570796327,-0.060462925,0,0,0,0,0
0,-0.051292925,1.570796327,0.050092925,0,0,0,0,-0.06408,-0.496132191,0.983544626,-0.502812313,0.06408,-0.06408,-0.496132191,0.983544626,-0.502812313,0.06408,1.570796327,-0.050092925,0,0,0,0,0
0,-0.041022925,1.570796327,0.039722925,0,0,0,0,-0.06942,-0.496752191,0.992784626,-0.508352313,0.06942,-0.06942,-0.496752191,0.992784626,-0.508352313,0.06942,1.570796327,-0.039722925,0,0,0,0,0
0,-0.030752925,1.570796327,0.029352925,0,0,0,0,-0.07476,-0.497372191,1.002024626,-0.513892313,0.07476,-0.07476,-0.497372191,1.002024626,-0.513892313,0.07476,1.570796327,-0.029352925,0,0,0,0,0
0,-0.020482925,1.570796327,0.018982925,0,0,0,0,-0.0801,-0.497992191,1.011264626,-0.519432313,0.0801,-0.0801,-0.497992191,1.011264626,-0.519432313,0.0801,1.570796327,-0.018982925,0,0,0,0,0
0,-0.010212925,1.570796327,0.008612925,0,0,0,0,-0.08544,-0.498612191,1.020504626,-0.524972313,0.08544,-0.08544,-0.498612191,1.020504626,-0.524972313,0.08544,1.570796327,-0.008612925,0,0,0,0,0
0,-0.010212925,1.570796327,0.008612925,0,0,0,0,-0.08544,-0.498612191,1.020504626,-0.530512313,0.08544,-0.08544,-0.498612191,1.020504626,-0.530512313,0.08544,1.570796327,-0.008612925,0,0,0,0,0
0,-0.164262925,1.570796327,0.164162925,0,0,0,0,-0.00657,-0.488902191,0.881494626,-0.441872313,0.00657,-0.00657,-0.488902191,0.881494626,-0.441872313,0.00657,1.570796327,-0.164162925,0,0,0,0,0
0,-0.153992925,1.570796327,0.153792925,0,0,0,0,-0.01314,-0.489112191,0.890324626,-0.447412313,0.01314,-0.01314,-0.489112191,0.890324626,-0.447412313,0.01314,1.570796327,-0.153792925,0,0,0,0,0
0,-0.143722925,1.570796327,0.143422925,0,0,0,0,-0.01971,-0.489322191,0.899154626,-0.452952313,0.01971,-0.01971,-0.489322191,0.899154626,-0.452952313,0.01971,1.570796327,-0.143422925,0,0,0,0,0
0,-0.133452925,1.570796327,0.133052925,0,0,0,0,-0.02628,-0.489532191,0.907984626,-0.458492313,0.02628,-0.02628,-0.489532191,0.907984626,-0.458492313,0.02628,1.570796327,-0.133052925,0,0,0,0,0
0,-0.123182925,1.570796327,0.122682925,0,0,0,0,-0.03285,-0.489742191,0.916814626,-0.464032313,0.03285,-0.03285,-0.489742191,0.916814626,-0.464032313,0.03285,1.570796327,-0.122682925,0,0,0,0,0
0,-0.112912925,1.570796327,0.112312925,0,0,0,0,-0.03942,-0.489952191,0.925644626,-0.469572313,0.03942,-0.03942,-0.489952191,0.925644626,-0.469572313,0.03942,1.570796327,-0.112312925,0,0,0,0,0
0,-0.102642925,1.570796327,0.101942925,0,0,0,0,-0.04599,-0.490162191,0.934474626,-0.475112313,0.04599,-0.04599,-0.490162191,0.934474626,-0.475112313,0.04599,1.570796327,-0.101942925,0,0,0,0,0
0,-0.092372925,1.570796327,0.091572925,0,0,0,0,-0.05256,-0.490372191,0.943304626,-0.480652313,0.05256,-0.05256,-0.490372191,0.943304626,-0.480652313,0.05256,1.570796327,-0.091572925,0,0,0,0,0
0,-0.082102925,1.570796327,0.081202925,0,0,0,0,-0.05913,-0.490582191,0.952134626,-0.486192313,0.05913,-0.05913,-0.490582191,0.952134626,-0.486192313,0.05913,1.570796327,-0.081202925,0,0,0,0,0
0,-0.071832925,1.570796327,0.070832925,0,0,0,0,-0.0657,-0.490792191,0.960964626,-0.491732313,0.0657,-0.0657,-0.490792191,0.960964626,-0.491732313,0.0657,1.570796327,-0.070832925,0,0,0,0,0
0,-0.061562925,1.570796327,0.060462925,0,0,0,0,-0.07227,-0.491002191,0.969794626,-0.497272313,0.07227,-0.07227,-0.491002191,0.969794626,-0.497272313,0.07227,1.570796327,-0.060462925,0,0,0,0,0
0,-0.051292925,1.570796327,0.050092925,0,0,0,0,-0.07884,-0.491212191,0.978624626,-0.502812313,0.07884,-0.07884,-0.491212191,0.978624626,-0.502812313,0.07884,1.570796327,-0.050092925,0,0,0,0,0
0,-0.041022925,1.570796327,0.039722925,0,0,0,0,-0.08541,-0.491422191,0.987454626,-0.508352313,0.08541,-0.08541,-0.491422191,0.987454626,-0.508352313,0.08541,1.570796327,-0.039722925,0,0,0,0,0
0,-0.030752925,1.570796327,0.029352925,0,0,0,0,-0.09198,-0.491632191,0.996284626,-0.513892313,0.09198,-0.09198,-0.491632191,0.996284626,-0.513892313,0.09198,1.570796327,-0.029352925,0,0,0,0,0
0,-0.020482925,1.570796327,0.018982925,0,0,0,0,-0.09855,-0.491842191,1.005114626,-0.519432313,0.09855,-0.09855,-0.491842191,1.005114626,-0.519432313,0.09855,1.570796327,-0.018982925,0,0,0,0,0
0,-0.010212925,1.570796327,0.008612925,0,0,0,0,-0.10512,-0.492052191,1.013944626,-0.524972313,0.10512,-0.10512,-0.492052191,1.013944626,-0.524972313,0.10512,1.570796327,-0.008612925,0,0,0,0,0
0,-0.010212925,1.570796327,0.008612925,0,0,0,0,-0.11169,-0.492052191,1.013944626,-0.530512313,0.11169,-0.11169,-0.492052191,1.013944626,-0.530512313,0.11169,1.570796327,-0.008612925,0,0,0,0,0
0,-0.164262925,1.570796327,0.164162925,0,0,0,0,-0.00801,-0.488182191,0.880774626,-0.441772313,0.00801,-0.00801,-0.488182191,0.880774626,-0.441772313,0.00801,1.570796327,-0.164162925,0,0,0,0,0
0,-0.153992925,1.570796327,0.153792925,0,0,0,0,-0.01602,-0.487672191,0.888884626,-0.447212313,0.01602,-0.01602,-0.487672191,0.888884626,-0.447212313,0.01602,1.570796327,-0.153792925,0,0,0,0,0
0,-0.143722925,1.570796327,0.143422925,0,0,0,0,-0.02403,-0.487162191,0.896994626,-0.452652313,0.02403,-0.02403,-0.487162191,0.896994626,-0.452652313,0.02403,1.570796327,-0.143422925,0,0,0,0,0
0,-0.133452925,1.570796327,0.133052925,0,0,0,0,-0.03204,-0.486652191,0.905104626,-0.458092313,0.03204,-0.03204,-0.486652191,0.905104626,-0.458092313,0.03204,1.570796327,-0.133052925,0,0,0,0,0
0,-0.123182925,1.570796327,0.122682925,0,0,0,0,-0.04005,-0.486142191,0.913214626,-0.463532313,0.04005,-0.04005,-0.486142191,0.913214626,-0.463532313,0.04005,1.570796327,-0.122682925,0,0,0,0,0
0,-0.112912925,1.570796327,0.112312925,0,0,0,0,-0.04806,-0.485632191,0.921324626,-0.468972313,0.04806,-0.04806,-0.485632191,0.921324626,-0.468972313,0.04806,1.570796327,-0.112312925,0,0,0,0,0
0,-0.102642925,1.570796327,0.101942925,0,0,0,0,-0.05607,-0.485122191,0.929434626,-0.474412313,0.05607,-0.05607,-0.485122191,0.929434626,-0.474412313,0.05607,1.570796327,-0.101942925,0,0,0,0,0
0,-0.092372925,1.570796327,0.091572925,0,0,0,0,-0.06408,-0.484612191,0.937544626,-0.479852313,0.06408,-0.06408,-0.484612191,0.937544626,-0.479852313,0.06408,1.570796327,-0.091572925,0,0,0,0,0
0,-0.082102925,1.570796327,0.081202925,0,0,0,0,-0.07209,-0.484102191,0.945654626,-0.485292313,0.07209,-0.07209,-0.484102191,0.945654626,-0.485292313,0.07209,1.570796327,-0.081202925,0,0,0,0,0
0,-0.071832925,1.570796327,0.070832925,0,0,0,0,-0.0801,-0.483592191,0.953764626,-0.490732313,0.0801,-0.0801,-0.483592191,0.953764626,-0.490732313,0.0801,1.570796327,-0.070832925,0,0,0,0,0
0,-0.061562925,1.570796327,0.060462925,0,0,0,0,-0.08811,-0.483082191,0.961874626,-0.496172313,0.08811,-0.08811,-0.483082191,0.961874626,-0.496172313,0.08811,1.570796327,-0.060462925,0,0,0,0,0
0,-0.051292925,1.570796327,0.050092925,0,0,0,0,-0.09612,-0.482572191,0.969984626,-0.501612313,0.09612,-0.09612,-0.482572191,0.969984626,-0.501612313,0.09612,1.570796327,-0.050092925,0,0,0,0,0
0,-0.041022925,1.570796327,0.039722925,0,0,0,0,-0.10413,-0.482062191,0.978094626,-0.507052313,0.10413,-0.10413,-0.482062191,0.978094626,-0.507052313,0.10413,1.570796327,-0.039722925,0,0,0,0,0
0,-0.030752925,1.570796327,0.029352925,0,0,0,0,-0.11214,-0.481552191,0.986204626,-0.512492313,0.11214,-0.11214,-0.481552191,0.986204626,-0.512492313,0.11214,1.570796327,-0.029352925,0,0,0,0,0
0,-0.020482925,1.570796327,0.018982925,0,0,0,0,-0.12015,-0.481042191,0.994314626,-0.517932313,0.12015,-0.12015,-0.481042191,0.994314626,-0.517932313,0.12015,1.570796327,-0.018982925,0,0,0,0,0
0,-0.010212925,1.570796327,0.008612925,0,0,0,0,-0.12816,-0.480532191,1.002424626,-0.523372313,0.12816,-0.12816,-0.480532191,1.002424626,-0.523372313,0.12816,1.570796327,-0.008612925,0,0,0,0,0
0,-0.010212925,1.570796327,0.008612925,0,0,0,0,-0.12816,-0.480022191,1.010534626,-0.528812313,0.12816,-0.12816,-0.480022191,1.010534626,-0.528812313,0.12816,1.570796327,-0.008612925,0,0,0,0,0
0,-0.164262925,1.570796327,0.164162925,0,0,0,0,-0.00924,-0.487462191,0.879954626,-0.441872313,0.00924,-0.00924,-0.487462191,0.879954626,-0.441872313,0.00924,1.570796327,-0.164162925,0,0,0,0,0
0,-0.153992925,1.570796327,0.153792925,0,0,0,0,-0.01848,-0.486232191,0.887244626,-0.447412313,0.01848,-0.01848,-0.486232191,0.887244626,-0.447412313,0.01848,1.570796327,-0.153792925,0,0,0,0,0
0,-0.143722925,1.570796327,0.143422925,0,0,0,0,-0.02772,-0.485002191,0.894534626,-0.452952313,0.02772,-0.02772,-0.485002191,0.894534626,-0.452952313,0.02772,1.570796327,-0.143422925,0,0,0,0,0
0,-0.133452925,1.570796327,0.133052925,0,0,0,0,-0.03696,-0.483772191,0.901824626,-0.458492313,0.03696,-0.03696,-0.483772191,0.901824626,-0.458492313,0.03696,1.570796327,-0.133052925,0,0,0,0,0
0,-0.123182925,1.570796327,0.122682925,0,0,0,0,-0.0462,-0.482542191,0.909114626,-0.464032313,0.0462,-0.0462,-0.482542191,0.909114626,-0.464032313,0.0462,1.570796327,-0.122682925,0,0,0,0,0
0,-0.112912925,1.570796327,0.112312925,0,0,0,0,-0.05544,-0.481312191,0.916404626,-0.469572313,0.05544,-0.05544,-0.481312191,0.916404626,-0.469572313,0.05544,1.570796327,-0.112312925,0,0,0,0,0
0,-0.102642925,1.570796327,0.101942925,0,0,0,0,-0.06468,-0.480082191,0.923694626,-0.475112313,0.06468,-0.06468,-0.480082191,0.923694626,-0.475112313,0.06468,1.570796327,-0.101942925,0,0,0,0,0
0,-0.092372925,1.570796327,0.091572925,0,0,0,0,-0.07392,-0.478852191,0.930984626,-0.480652313,0.07392,-0.07392,-0.478852191,0.930984626,-0.480652313,0.07392,1.570796327,-0.091572925,0,0,0,0,0
0,-0.082102925,1.570796327,0.081202925,0,0,0,0,-0.08316,-0.477622191,0.938274626,-0.486192313,0.08316,-0.08316,-0.477622191,0.938274626,-0.486192313,0.08316,1.570796327,-0.081202925,0,0,0,0,0
0,-0.071832925,1.570796327,0.070832925,0,0,0,0,-0.0924,-0.476392191,0.945564626,-0.491732313,0.0924,-0.0924,-0.476392191,0.945564626,-0.491732313,0.0924,1.570796327,-0.070832925,0,0,0,0,0
0,-0.061562925,1.570796327,0.060462925,0,0,0,0,-0.10164,-0.475162191,0.952854626,-0.497272313,0.10164,-0.10164,-0.475162191,0.952854626,-0.497272313,0.10164,1.570796327,-0.060462925,0,0,0,0,0
0,-0.051292925,1.570796327,0.050092925,0,0,0,0,-0.11088,-0.473932191,0.960144626,-0.502812313,0.11088,-0.11088,-0.473932191,0.960144626,-0.502812313,0.11088,1.570796327,-0.050092925,0,0,0,0,0
0,-0.041022925,1.570796327,0.039722925,0,0,0,0,-0.12012,-0.472702191,0.967434626,-0.508352313,0.12012,-0.12012,-0.472702191,0.967434626,-0.508352313,0.12012,1.570796327,-0.039722925,0,0,0,0,0
0,-0.030752925,1.570796327,0.029352925,0,0,0,0,-0.12936,-0.471472191,0.974724626,-0.513892313,0.12936,-0.12936,-0.471472191,0.974724626,-0.513892313,0.12936,1.570796327,-0.029352925,0,0,0,0,0
0,-0.020482925,1.570796327,0.018982925,0,0,0,0,-0.1386,-0.470242191,0.982014626,-0.519432313,0.1386,-0.1386,-0.470242191,0.982014626,-0.519432313,0.1386,1.570796327,-0.018982925,0,0,0,0,0
0,-0.010212925,1.570796327,0.008612925,0,0,0,0,-0.14784,-0.469012191,0.989304626,-0.524972313,0.14784,-0.14784,-0.469012191,0.989304626,-0.524972313,0.14784,1.570796327,-0.008612925,0,0,0,0,0
0,-0.010212925,1.570796327,0.008612925,0,0,0,0,-0.14784,-0.467782191,0.989304626,-0.530512313,0.14784,-0.14784,-0.467782191,0.989304626,-0.530512313,0.14784,1.570796327,-0.008612925,0,0,0,0,0
0,-0.164262925,1.570796327,0.164162925,0,0,0,0,-0.01027,-0.486232191,0.878924626,-0.442082313,0.01057,-0.01068,-0.487362191,0.881184626,-0.443112313,0.01068,1.570796327,-0.164162925,0,0,0,0,0
0,-0.153992925,1.570796327,0.153792925,0,0,0,0,-0.02054,-0.483772191,0.885184626,-0.447832313,0.02114,-0.02136,-0.486032191,0.889704626,-0.449892313,0.02136,1.570796327,-0.153792925,0,0,0,0,0
0,-0.143722925,1.570796327,0.143422925,0,0,0,0,-0.03081,-0.481312191,0.891444626,-0.453582313,0.03171,-0.03204,-0.484702191,0.898224626,-0.456672313,0.03204,1.570796327,-0.143422925,0,0,0,0,0
0,-0.133452925,1.570796327,0.133052925,0,0,0,0,-0.04108,-0.478852191,0.897704626,-0.459332313,0.04228,-0.04272,-0.483372191,0.906744626,-0.463452313,0.04272,1.570796327,-0.133052925,0,0,0,0,0
0,-0.123182925,1.570796327,0.122682925,0,0,0,0,-0.05135,-0.476392191,0.903964626,-0.465082313,0.05285,-0.0534,-0.482042191,0.915264626,-0.470232313,0.0534,1.570796327,-0.122682925,0,0,0,0,0
0,-0.112912925,1.570796327,0.112312925,0,0,0,0,-0.06162,-0.473932191,0.910224626,-0.470832313,0.06342,-0.06408,-0.480712191,0.923784626,-0.477012313,0.06408,1.570796327,-0.112312925,0,0,0,0,0
0,-0.102642925,1.570796327,0.101942925,0,0,0,0,-0.07189,-0.471472191,0.916484626,-0.476582313,0.07399,-0.07476,-0.479382191,0.932304626,-0.483792313,0.07476,1.570796327,-0.101942925,0,0,0,0,0
0,-0.092372925,1.570796327,0.091572925,0,0,0,0,-0.08216,-0.469012191,0.922744626,-0.482332313,0.08456,-0.08544,-0.478052191,0.940824626,-0.490572313,0.08544,1.570796327,-0.091572925,0,0,0,0,0
0,-0.082102925,1.570796327,0.081202925,0,0,0,0,-0.09243,-0.466552191,0.929004626,-0.488082313,0.09513,-0.09612,-0.476722191,0.949344626,-0.497352313,0.09612,1.570796327,-0.081202925,0,0,0,0,0
0,-0.071832925,1.570796327,0.070832925,0,0,0,0,-0.1027,-0.464092191,0.935264626,-0.493832313,0.1057,-0.1068,-0.475392191,0.957864626,-0.504132313,0.1068,1.570796327,-0.070832925,0,0,0,0,0
0,-0.061562925,1.570796327,0.060462925,0,0,0,0,-0.11297,-0.461632191,0.941524626,-0.499582313,0.11627,-0.11748,-0.474062191,0.966384626,-0.510912313,0.11748,1.570796327,-0.060462925,0,0,0,0,0
0,-0.051292925,1.570796327,0.050092925,0,0,0,0,-0.12324,-0.459172191,0.947784626,-0.505332313,0.12684,-0.12816,-0.472732191,0.974904626,-0.517692313,0.12816,1.570796327,-0.050092925,0,0,0,0,0
0,-0.041022925,1.570796327,0.039722925,0,0,0,0,-0.13351,-0.456712191,0.954044626,-0.511082313,0.13741,-0.13884,-0.471402191,0.983424626,-0.524472313,0.13884,1.570796327,-0.039722925,0,0,0,0,0
0,-0.030752925,1.570796327,0.029352925,0,0,0,0,-0.14378,-0.454252191,0.960304626,-0.516832313,0.14798,-0.14952,-0.470072191,0.991944626,-0.531252313,0.14952,1.570796327,-0.029352925,0,0,0,0,0
0,-0.020482925,1.570796327,0.018982925,0,0,0,0,-0.15405,-0.451792191,0.966564626,-0.522582313,0.15855,-0.1602,-0.468742191,1.000464626,-0.538032313,0.1602,1.570796327,-0.018982925,0,0,0,0,0
0,-0.010212925,1.570796327,0.008612925,0,0,0,0,-0.16432,-0.449332191,0.972824626,-0.528332313,0.16912,-0.17088,-0.467412191,1.008984626,-0.544812313,0.17088,1.570796327,-0.008612925,0,0,0,0,0
0,-0.010212925,1.570796327,0.008612925,0,0,0,0,-0.16432,-0.446872191,0.979084626,-0.528332313,0.17969,-0.17088,-0.466082191,1.017504626,-0.544812313,0.17088,1.570796327,-0.008612925,0,0,0,0,0
0,-0.164262925,1.570796327,0.164162925,0,0,0,0,-0.00883,-0.485822191,0.879034626,-0.442592313,0.01109,-0.0116,-0.490442191,0.887034626,-0.445882313,0.0116,1.570796327,-0.164162925,0,0,0,0,0
0,-0.153992925,1.570796327,0.153792925,0,0,0,0,-0.01766,-0.482952191,0.885404626,-0.448852313,0.02218,-0.0232,-0.492192191,0.901404626,-0.455432313,0.0232,1.570796327,-0.153792925,0,0,0,0,0
0,-0.143722925,1.570796327,0.143422925,0,0,0,0,-0.02649,-0.480082191,0.891774626,-0.455112313,0.03327,-0.0348,-0.493942191,0.915774626,-0.464982313,0.0348,1.570796327,-0.143422925,0,0,0,0,0
0,-0.133452925,1.570796327,0.133052925,0,0,0,0,-0.03532,-0.477212191,0.898144626,-0.461372313,0.04436,-0.0464,-0.495692191,0.930144626,-0.474532313,0.0464,1.570796327,-0.133052925,0,0,0,0,0
0,-0.123182925,1.570796327,0.122682925,0,0,0,0,-0.04415,-0.474342191,0.904514626,-0.467632313,0.05545,-0.058,-0.497442191,0.944514626,-0.484082313,0.058,1.570796327,-0.122682925,0,0,0,0,0
0,-0.112912925,1.570796327,0.112312925,0,0,0,0,-0.05298,-0.471472191,0.910884626,-0.473892313,0.06654,-0.0696,-0.499192191,0.958884626,-0.493632313,0.0696,1.570796327,-0.112312925,0,0,0,0,0
0,-0.102642925,1.570796327,0.101942925,0,0,0,0,-0.06181,-0.468602191,0.917254626,-0.480152313,0.07763,-0.0812,-0.500942191,0.973254626,-0.503182313,0.0812,1.570796327,-0.101942925,0,0,0,0,0
0,-0.092372925,1.570796327,0.091572925,0,0,0,0,-0.07064,-0.465732191,0.923624626,-0.486412313,0.08872,-0.0928,-0.502692191,0.987624626,-0.512732313,0.0928,1.570796327,-0.091572925,0,0,0,0,0
0,-0.082102925,1.570796327,0.081202925,0,0,0,0,-0.07947,-0.462862191,0.929994626,-0.492672313,0.09981,-0.1044,-0.504442191,1.001994626,-0.522282313,0.1044,1.570796327,-0.081202925,0,0,0,0,0
0,-0.071832925,1.570796327,0.070832925,0,0,0,0,-0.0883,-0.459992191,0.936364626,-0.498932313,0.1109,-0.116,-0.506192191,1.016364626,-0.531832313,0.116,1.570796327,-0.070832925,0,0,0,0,0
0,-0.061562925,1.570796327,0.060462925,0,0,0,0,-0.09713,-0.457122191,0.942734626,-0.505192313,0.12199,-0.1276,-0.507942191,1.030734626,-0.541382313,0.1276,1.570796327,-0.060462925,0,0,0,0,0
0,-0.051292925,1.570796327,0.050092925,0,0,0,0,-0.10596,-0.454252191,0.949104626,-0.511452313,0.13308,-0.1392,-0.509692191,1.045104626,-0.550932313,0.1392,1.570796327,-0.050092925,0,0,0,0,0
0,-0.041022925,1.570796327,0.039722925,0,0,0,0,-0.11479,-0.451382191,0.955474626,-0.517712313,0.14417,-0.1508,-0.511442191,1.059474626,-0.560482313,0.1508,1.570796327,-0.039722925,0,0,0,0,0
0,-0.030752925,1.570796327,0.029352925,0,0,0,0,-0.12362,-0.448512191,0.961844626,-0.523972313,0.15526,-0.1624,-0.513192191,1.073844626,-0.570032313,0.1624,1.570796327,-0.029352925,0,0,0,0,0
0,-0.020482925,1.570796327,0.018982925,0,0,0,0,-0.13245,-0.445642191,0.968214626,-0.530232313,0.16635,-0.174,-0.514942191,1.088214626,-0.579582313,0.174,1.570796327,-0.018982925,0,0,0,0,0
0,-0.010212925,1.570796327,0.008612925,0,0,0,0,-0.14128,-0.442772191,0.974584626,-0.536492313,0.17744,-0.1856,-0.516692191,1.102584626,-0.589132313,0.1856,1.570796327,-0.008612925,0,0,0,0,0
0,-0.010212925,1.570796327,0.008612925,0,0,0,0,-0.14128,-0.439902191,0.974584626,-0.542752313,0.17744,-0.1972,-0.516692191,1.116954626,-0.589132313,0.1972,1.570796327,-0.008612925,0,0,0,0,0
0,-0.164262925,1.570796327,0.164162925,0,0,0,0,-0.00852,-0.486022191,0.880674626,-0.443822313,0.0116,-0.01273,-0.498342191,0.897714626,-0.448652313,0.01273,1.570796327,-0.164162925,0,0,0,0,0
0,-0.153992925,1.570796327,0.153792925,0,0,0,0,-0.01704,-0.483352191,0.888684626,-0.451312313,0.0232,-0.02546,-0.507992191,0.922764626,-0.460972313,0.02546,1.570796327,-0.153792925,0,0,0,0,0
0,-0.143722925,1.570796327,0.143422925,0,0,0,0,-0.02556,-0.480682191,0.896694626,-0.458802313,0.0348,-0.03819,-0.517642191,0.947814626,-0.473292313,0.03819,1.570796327,-0.143422925,0,0,0,0,0
0,-0.133452925,1.570796327,0.133052925,0,0,0,0,-0.03408,-0.478012191,0.904704626,-0.466292313,0.0464,-0.05092,-0.527292191,0.972864626,-0.485612313,0.05092,1.570796327,-0.133052925,0,0,0,0,0
0,-0.123182925,1.570796327,0.122682925,0,0,0,0,-0.0426,-0.475342191,0.912714626,-0.473782313,0.058,-0.06365,-0.536942191,0.997914626,-0.497932313,0.06365,1.570796327,-0.122682925,0,0,0,0,0
0,-0.112912925,1.570796327,0.112312925,0,0,0,0,-0.05112,-0.472672191,0.920724626,-0.481272313,0.0696,-0.07638,-0.546592191,1.022964626,-0.510252313,0.07638,1.570796327,-0.112312925,0,0,0,0,0
0,-0.102642925,1.570796327,0.101942925,0,0,0,0,-0.05964,-0.470002191,0.928734626,-0.488762313,0.0812,-0.08911,-0.556242191,1.048014626,-0.522572313,0.08911,1.570796327,-0.101942925,0,0,0,0,0
0,-0.092372925,1.570796327,0.091572925,0,0,0,0,-0.06816,-0.467332191,0.936744626,-0.496252313,0.0928,-0.10184,-0.565892191,1.073064626,-0.534892313,0.10184,1.570796327,-0.091572925,0,0,0,0,0
0,-0.082102925,1.570796327,0.081202925,0,0,0,0,-0.07668,-0.464662191,0.944754626,-0.503742313,0.1044,-0.11457,-0.575542191,1.098114626,-0.547212313,0.11457,1.570796327,-0.081202925,0,0,0,0,0
0,-0.071832925,1.570796327,0.070832925,0,0,0,0,-0.0852,-0.461992191,0.952764626,-0.511232313,0.116,-0.1273,-0.585192191,1.123164626,-0.559532313,0.1273,1.570796327,-0.070832925,0,0,0,0,0
0,-0.061562925,1.570796327,0.060462925,0,0,0,0,-0.09372,-0.459322191,0.960774626,-0.518722313,0.1276,-0.14003,-0.594842191,1.148214626,-0.571852313,0.14003,1.570796327,-0.060462925,0,0,0,0,0
0,-0.051292925,1.570796327,0.050092925,0,0,0,0,-0.10224,-0.456652191,0.968784626,-0.526212313,0.1392,-0.15276,-0.604492191,1.173264626,-0.584172313,0.15276,1.570796327,-0.050092925,0,0,0,0,0
0,-0.041022925,1.570796327,0.039722925,0,0,0,0,-0.11076,-0.453982191,0.976794626,-0.533702313,0.1508,-0.16549,-0.614142191,1.198314626,-0.596492313,0.16549,1.570796327,-0.039722925,0,0,0,0,0
0,-0.030752925,1.570796327,0.029352925,0,0,0,0,-0.11928,-0.451312191,0.984804626,-0.541192313,0.1624,-0.17822,-0.623792191,1.223364626,-0.608812313,0.17822,1.570796327,-0.029352925,0,0,0,0,0
0,-0.020482925,1.570796327,0.018982925,0,0,0,0,-0.1278,-0.448642191,0.992814626,-0.548682313,0.174,-0.19095,-0.633442191,1.248414626,-0.621132313,0.19095,1.570796327,-0.018982925,0,0,0,0,0
0,-0.010212925,1.570796327,0.008612925,0,0,0,0,-0.13632,-0.445972191,1.000824626,-0.556172313,0.1856,-0.20368,-0.643092191,1.273464626,-0.633452313,0.20368,1.570796327,-0.008612925,0,0,0,0,0
0,-0.010212925,1.570796327,0.008612925,0,0,0,0,-0.14484,-0.445972191,1.000824626,-0.563662313,0.1972,-0.21641,-0.652742191,1.298514626,-0.633452313,0.21641,1.570796327,-0.008612925,0,0,0,0,0
0,-0.164262925,1.570796327,0.164162925,0,0,0,0,-0.00862,-0.486432191,0.882004626,-0.444752313,0.0116,-0.01314,-0.503582191,0.902024626,-0.447732313,0.01314,1.570796327,-0.164162925,0,0,0,0,0
0,-0.153992925,1.570796327,0.153792925,0,0,0,0,-0.01724,-0.484172191,0.891344626,-0.453172313,0.0232,-0.02628,-0.518472191,0.931384626,-0.459132313,0.02628,1.570796327,-0.153792925,0,0,0,0,0
0,-0.143722925,1.570796327,0.143422925,0,0,0,0,-0.02586,-0.481912191,0.900684626,-0.461592313,0.0348,-0.03942,-0.533362191,0.960744626,-0.470532313,0.03942,1.570796327,-0.143422925,0,0,0,0,0
0,-0.133452925,1.570796327,0.133052925,0,0,0,0,-0.03448,-0.479652191,0.910024626,-0.470012313,0.0464,-0.05256,-0.548252191,0.990104626,-0.481932313,0.05256,1.570796327,-0.133052925,0,0,0,0,0
0,-0.123182925,1.570796327,0.122682925,0,0,0,0,-0.0431,-0.477392191,0.919364626,-0.478432313,0.058,-0.0657,-0.563142191,1.019464626,-0.493332313,0.0657,1.570796327,-0.122682925,0,0,0,0,0
0,-0.112912925,1.570796327,0.112312925,0,0,0,0,-0.05172,-0.475132191,0.928704626,-0.486852313,0.0696,-0.07884,-0.578032191,1.048824626,-0.504732313,0.07884,1.570796327,-0.112312925,0,0,0,0,0
0,-0.102642925,1.570796327,0.101942925,0,0,0,0,-0.06034,-0.472872191,0.938044626,-0.495272313,0.0812,-0.09198,-0.592922191,1.078184626,-0.516132313,0.09198,1.570796327,-0.101942925,0,0,0,0,0
0,-0.092372925,1.570796327,0.091572925,0,0,0,0,-0.06896,-0.470612191,0.947384626,-0.503692313,0.0928,-0.10512,-0.607812191,1.107544626,-0.527532313,0.10512,1.570796327,-0.091572925,0,0,0,0,0
0,-0.082102925,1.570796327,0.081202925,0,0,0,0,-0.07758,-0.468352191,0.956724626,-0.512112313,0.1044,-0.11826,-0.622702191,1.136904626,-0.538932313,0.11826,1.570796327,-0.081202925,0,0,0,0,0
0,-0.071832925,1.570796327,0.070832925,0,0,0,0,-0.0862,-0.466092191,0.966064626,-0.520532313,0.116,-0.1314,-0.637592191,1.166264626,-0.550332313,0.1314,1.570796327,-0.070832925,0,0,0,0,0
0,-0.061562925,1.570796327,0.060462925,0,0,0,0,-0.09482,-0.463832191,0.975404626,-0.528952313,0.1276,-0.14454,-0.652482191,1.195624626,-0.561732313,0.14454,1.570796327,-0.060462925,0,0,0,0,0
0,-0.051292925,1.570796327,0.050092925,0,0,0,0,-0.10344,-0.461572191,0.984744626,-0.537372313,0.1392,-0.15768,-0.667372191,1.224984626,-0.573132313,0.15768,1.570796327,-0.050092925,0,0,0,0,0
0,-0.041022925,1.570796327,0.039722925,0,0,0,0,-0.11206,-0.459312191,0.994084626,-0.545792313,0.1508,-0.17082,-0.682262191,1.254344626,-0.584532313,0.17082,1.570796327,-0.039722925,0,0,0,0,0
0,-0.030752925,1.570796327,0.029352925,0,0,0,0,-0.12068,-0.457052191,1.003424626,-0.554212313,0.1624,-0.18396,-0.697152191,1.283704626,-0.595932313,0.18396,1.570796327,-0.029352925,0,0,0,0,0
0,-0.020482925,1.570796327,0.018982925,0,0,0,0,-0.1293,-0.454792191,1.012764626,-0.562632313,0.174,-0.1971,-0.712042191,1.313064626,-0.607332313,0.1971,1.570796327,-0.018982925,0,0,0,0,0
0,-0.010212925,1.570796327,0.008612925,0,0,0,0,-0.13792,-0.452532191,1.022104626,-0.571052313,0.1856,-0.21024,-0.726932191,1.342424626,-0.618732313,0.21024,1.570796327,-0.008612925,0,0,0,0,0
0,-0.010212925,1.570796327,0.008612925,0,0,0,0,-0.14654,-0.452532191,1.031444626,-0.571052313,0.1972,-0.22338,-0.726932191,1.371784626,-0.618732313,0.22338,1.570796327,-0.008612925,0,0,0,0,0
0,-0.164262925,1.570796327,0.164162925,0,0,0,0,-0.00832,-0.486642191,0.882934626,-0.445672313,0.0115,-0.01283,-0.507172191,0.902234626,-0.444442313,0.01283,1.570796327,-0.164162925,0,0,0,0,0
0,-0.153992925,1.570796327,0.153792925,0,0,0,0,-0.01664,-0.484592191,0.893204626,-0.455012313,0.023,-0.02566,-0.525652191,0.931804626,-0.452552313,0.02566,1.570796327,-0.153792925,0,0,0,0,0
0,-0.143722925,1.570796327,0.143422925,0,0,0,0,-0.02496,-0.482542191,0.903474626,-0.464352313,0.0345,-0.03849,-0.544132191,0.961374626,-0.460662313,0.03849,1.570796327,-0.143422925,0,0,0,0,0
0,-0.133452925,1.570796327,0.133052925,0,0,0,0,-0.03328,-0.480492191,0.913744626,-0.473692313,0.046,-0.05132,-0.562612191,0.990944626,-0.468772313,0.05132,1.570796327,-0.133052925,0,0,0,0,0
0,-0.123182925,1.570796327,0.122682925,0,0,0,0,-0.0416,-0.478442191,0.924014626,-0.483032313,0.0575,-0.06415,-0.581092191,1.020514626,-0.476882313,0.06415,1.570796327,-0.122682925,0,0,0,0,0
0,-0.112912925,1.570796327,0.112312925,0,0,0,0,-0.04992,-0.476392191,0.934284626,-0.492372313,0.069,-0.07698,-0.599572191,1.050084626,-0.484992313,0.07698,1.570796327,-0.112312925,0,0,0,0,0
0,-0.102642925,1.570796327,0.101942925,0,0,0,0,-0.05824,-0.474342191,0.944554626,-0.501712313,0.0805,-0.08981,-0.618052191,1.079654626,-0.493102313,0.08981,1.570796327,-0.101942925,0,0,0,0,0
0,-0.092372925,1.570796327,0.091572925,0,0,0,0,-0.06656,-0.472292191,0.954824626,-0.511052313,0.092,-0.10264,-0.636532191,1.109224626,-0.501212313,0.10264,1.570796327,-0.091572925,0,0,0,0,0
0,-0.082102925,1.570796327,0.081202925,0,0,0,0,-0.07488,-0.470242191,0.965094626,-0.520392313,0.1035,-0.11547,-0.655012191,1.138794626,-0.509322313,0.11547,1.570796327,-0.081202925,0,0,0,0,0
0,-0.071832925,1.570796327,0.070832925,0,0,0,0,-0.0832,-0.468192191,0.975364626,-0.529732313,0.115,-0.1283,-0.673492191,1.168364626,-0.517432313,0.1283,1.570796327,-0.070832925,0,0,0,0,0
0,-0.061562925,1.570796327,0.060462925,0,0,0,0,-0.09152,-0.466142191,0.985634626,-0.539072313,0.1265,-0.14113,-0.691972191,1.197934626,-0.525542313,0.14113,1.570796327,-0.060462925,0,0,0,0,0
0,-0.051292925,1.570796327,0.050092925,0,0,0,0,-0.09984,-0.464092191,0.995904626,-0.548412313,0.138,-0.15396,-0.710452191,1.227504626,-0.533652313,0.15396,1.570796327,-0.050092925,0,0,0,0,0
0,-0.041022925,1.570796327,0.039722925,0,0,0,0,-0.10816,-0.462042191,1.006174626,-0.557752313,0.1495,-0.16679,-0.728932191,1.257074626,-0.541762313,0.16679,1.570796327,-0.039722925,0,0,0,0,0
0,-0.030752925,1.570796327,0.029352925,0,0,0,0,-0.11648,-0.459992191,1.016444626,-0.567092313,0.161,-0.17962,-0.747412191,1.286644626,-0.549872313,0.17962,1.570796327,-0.029352925,0,0,0,0,0
0,-0.020482925,1.570796327,0.018982925,0,0,0,0,-0.1248,-0.457942191,1.026714626,-0.576432313,0.1725,-0.19245,-0.765892191,1.316214626,-0.557982313,0.19245,1.570796327,-0.018982925,0,0,0,0,0
0,-0.010212925,1.570796327,0.008612925,0,0,0,0,-0.13312,-0.455892191,1.036984626,-0.585772313,0.184,-0.20528,-0.784372191,1.345784626,-0.566092313,0.20528,1.570796327,-0.008612925,0,0,0,0,0
0,-0.010212925,1.570796327,0.008612925,0,0,0,0,-0.13312,-0.453842191,1.036984626,-0.595112313,0.184,-0.21811,-0.784372191,1.345784626,-0.574202313,0.21811,1.570796327,-0.008612925,0,0,0,0,0
0,-0.164262925,1.570796327,0.164162925,0,0,0,0,-0.00749,-0.485612191,0.883134626,-0.446702313,0.01068,-0.0115,-0.506962191,0.895354626,-0.437662313,0.0115,1.570796327,-0.164162925,0,0,0,0,0
0,-0.153992925,1.570796327,0.153792925,0,0,0,0,-0.01498,-0.482532191,0.893604626,-0.457072313,0.02136,-0.023,-0.525232191,0.918044626,-0.438992313,0.023,1.570796327,-0.153792925,0,0,0,0,0
0,-0.143722925,1.570796327,0.143422925,0,0,0,0,-0.02247,-0.479452191,0.904074626,-0.467442313,0.03204,-0.0345,-0.543502191,0.940734626,-0.440322313,0.0345,1.570796327,-0.143422925,0,0,0,0,0
0,-0.133452925,1.570796327,0.133052925,0,0,0,0,-0.02996,-0.476372191,0.914544626,-0.477812313,0.04272,-0.046,-0.561772191,0.963424626,-0.441652313,0.046,1.570796327,-0.133052925,0,0,0,0,0
0,-0.123182925,1.570796327,0.122682925,0,0,0,0,-0.03745,-0.473292191,0.925014626,-0.488182313,0.0534,-0.0575,-0.580042191,0.986114626,-0.442982313,0.0575,1.570796327,-0.122682925,0,0,0,0,0
0,-0.112912925,1.570796327,0.112312925,0,0,0,0,-0.04494,-0.470212191,0.935484626,-0.498552313,0.06408,-0.069,-0.598312191,1.008804626,-0.444312313,0.069,1.570796327,-0.112312925,0,0,0,0,0
0,-0.102642925,1.570796327,0.101942925,0,0,0,0,-0.05243,-0.467132191,0.945954626,-0.508922313,0.07476,-0.0805,-0.616582191,1.031494626,-0.445642313,0.0805,1.570796327,-0.101942925,0,0,0,0,0
0,-0.092372925,1.570796327,0.091572925,0,0,0,0,-0.05992,-0.464052191,0.956424626,-0.519292313,0.08544,-0.092,-0.634852191,1.054184626,-0.446972313,0.092,1.570796327,-0.091572925,0,0,0,0,0
0,-0.082102925,1.570796327,0.081202925,0,0,0,0,-0.06741,-0.460972191,0.966894626,-0.529662313,0.09612,-0.1035,-0.653122191,1.076874626,-0.448302313,0.1035,1.570796327,-0.081202925,0,0,0,0,0
0,-0.071832925,1.570796327,0.070832925,0,0,0,0,-0.0749,-0.457892191,0.977364626,-0.540032313,0.1068,-0.115,-0.671392191,1.099564626,-0.449632313,0.115,1.570796327,-0.070832925,0,0,0,0,0
0,-0.061562925,1.570796327,0.060462925,0,0,0,0,-0.08239,-0.454812191,0.987834626,-0.550402313,0.11748,-0.1265,-0.689662191,1.122254626,-0.450962313,0.1265,1.570796327,-0.060462925,0,0,0,0,0
0,-0.051292925,1.570796327,0.050092925,0,0,0,0,-0.08988,-0.451732191,0.998304626,-0.560772313,0.12816,-0.138,-0.707932191,1.144944626,-0.452292313,0.138,1.570796327,-0.050092925,0,0,0,0,0
0,-0.041022925,1.570796327,0.039722925,0,0,0,0,-0.09737,-0.448652191,1.008774626,-0.571142313,0.13884,-0.1495,-0.726202191,1.167634626,-0.453622313,0.1495,1.570796327,-0.039722925,0,0,0,0,0
0,-0.030752925,1.570796327,0.029352925,0,0,0,0,-0.10486,-0.445572191,1.019244626,-0.581512313,0.14952,-0.161,-0.744472191,1.190324626,-0.454952313,0.161,1.570796327,-0.029352925,0,0,0,0,0
0,-0.020482925,1.570796327,0.018982925,0,0,0,0,-0.11235,-0.442492191,1.029714626,-0.591882313,0.1602,-0.1725,-0.762742191,1.213014626,-0.456282313,0.1725,1.570796327,-0.018982925,0,0,0,0,0
0,-0.010212925,1.570796327,0.008612925,0,0,0,0,-0.11984,-0.439412191,1.040184626,-0.602252313,0.17088,-0.184,-0.781012191,1.235704626,-0.457612313,0.184,1.570796327,-0.008612925,0,0,0,0,0
0,-0.010212925,1.570796327,0.008612925,0,0,0,0,-0.12733,-0.439412191,1.050654626,-0.602252313,0.17088,-0.184,-0.799282191,1.235704626,-0.458942313,0.184,1.570796327,-0.008612925,0,0,0,0,0
0,-0.164262925,1.570796327,0.164162925,0,0,0,0,-0.00667,-0.484072191,0.882114626,-0.447212313,0.00975,-0.01016,-0.503682191,0.888274626,-0.433872313,0.01016,1.570796327,-0.164162925,0,0,0,0,0
0,-0.153992925,1.570796327,0.153792925,0,0,0,0,-0.01334,-0.479452191,0.891564626,-0.458092313,0.0195,-0.02032,-0.518672191,0.903884626,-0.431412313,0.02032,1.570796327,-0.153792925,0,0,0,0,0
0,-0.143722925,1.570796327,0.143422925,0,0,0,0,-0.02001,-0.474832191,0.901014626,-0.468972313,0.02925,-0.03048,-0.533662191,0.919494626,-0.428952313,0.03048,1.570796327,-0.143422925,0,0,0,0,0
0,-0.133452925,1.570796327,0.133052925,0,0,0,0,-0.02668,-0.470212191,0.910464626,-0.479852313,0.039,-0.04064,-0.548652191,0.935104626,-0.426492313,0.04064,1.570796327,-0.133052925,0,0,0,0,0
0,-0.123182925,1.570796327,0.122682925,0,0,0,0,-0.03335,-0.465592191,0.919914626,-0.490732313,0.04875,-0.0508,-0.563642191,0.950714626,-0.424032313,0.0508,1.570796327,-0.122682925,0,0,0,0,0
0,-0.112912925,1.570796327,0.112312925,0,0,0,0,-0.04002,-0.460972191,0.929364626,-0.501612313,0.0585,-0.06096,-0.578632191,0.966324626,-0.421572313,0.06096,1.570796327,-0.112312925,0,0,0,0,0
0,-0.102642925,1.570796327,0.101942925,0,0,0,0,-0.04669,-0.456352191,0.938814626,-0.512492313,0.06825,-0.07112,-0.593622191,0.981934626,-0.419112313,0.07112,1.570796327,-0.101942925,0,0,0,0,0
0,-0.092372925,1.570796327,0.091572925,0,0,0,0,-0.05336,-0.451732191,0.948264626,-0.523372313,0.078,-0.08128,-0.608612191,0.997544626,-0.416652313,0.08128,1.570796327,-0.091572925,0,0,0,0,0
0,-0.082102925,1.570796327,0.081202925,0,0,0,0,-0.06003,-0.447112191,0.957714626,-0.534252313,0.08775,-0.09144,-0.623602191,1.013154626,-0.414192313,0.09144,1.570796327,-0.081202925,0,0,0,0,0
0,-0.071832925,1.570796327,0.070832925,0,0,0,0,-0.0667,-0.442492191,0.967164626,-0.545132313,0.0975,-0.1016,-0.638592191,1.028764626,-0.411732313,0.1016,1.570796327,-0.070832925,0,0,0,0,0
0,-0.061562925,1.570796327,0.060462925,0,0,0,0,-0.07337,-0.437872191,0.976614626,-0.556012313,0.10725,-0.11176,-0.653582191,1.044374626,-0.409272313,0.11176,1.570796327,-0.060462925,0,0,0,0,0
0,-0.051292925,1.570796327,0.050092925,0,0,0,0,-0.08004,-0.433252191,0.986064626,-0.566892313,0.117,-0.12192,-0.668572191,1.059984626,-0.406812313,0.12192,1.570796327,-0.050092925,0,0,0,0,0
0,-0.041022925,1.570796327,0.039722925,0,0,0,0,-0.08671,-0.428632191,0.995514626,-0.577772313,0.12675,-0.13208,-0.683562191,1.075594626,-0.404352313,0.13208,1.570796327,-0.039722925,0,0,0,0,0
0,-0.030752925,1.570796327,0.029352925,0,0,0,0,-0.09338,-0.424012191,1.004964626,-0.588652313,0.1365,-0.14224,-0.698552191,1.091204626,-0.401892313,0.14224,1.570796327,-0.029352925,0,0,0,0,0
0,-0.020482925,1.570796327,0.018982925,0,0,0,0,-0.10005,-0.419392191,1.014414626,-0.599532313,0.14625,-0.1524,-0.713542191,1.106814626,-0.399432313,0.1524,1.570796327,-0.018982925,0,0,0,0,0
0,-0.010212925,1.570796327,0.008612925,0,0,0,0,-0.10672,-0.414772191,1.023864626,-0.610412313,0.156,-0.16256,-0.728532191,1.122424626,-0.396972313,0.16256,1.570796327,-0.008612925,0,0,0,0,0
0,-0.010212925,1.570796327,0.008612925,0,0,0,0,-0.11339,-0.414772191,1.023864626,-0.621292313,0.16575,-0.17272,-0.728532191,1.122424626,-0.394512313,0.17272,1.570796327,-0.008612925,0,0,0,0,0
0,-0.164262925,1.570796327,0.164162925,0,0,0,0,-0.00749,-0.482222191,0.880674626,-0.447832313,0.00852,-0.00862,-0.499682191,0.882214626,-0.431712313,0.00862,1.570796327,-0.164162925,0,0,0,0,0
0,-0.153992925,1.570796327,0.153792925,0,0,0,0,-0.01498,-0.475752191,0.888684626,-0.459332313,0.01704,-0.01724,-0.510672191,0.891764626,-0.427092313,0.01724,1.570796327,-0.153792925,0,0,0,0,0
0,-0.143722925,1.570796327,0.143422925,0,0,0,0,-0.02247,-0.469282191,0.896694626,-0.470832313,0.02556,-0.02586,-0.521662191,0.901314626,-0.422472313,0.02586,1.570796327,-0.143422925,0,0,0,0,0
0,-0.133452925,1.570796327,0.133052925,0,0,0,0,-0.02996,-0.462812191,0.904704626,-0.482332313,0.03408,-0.03448,-0.532652191,0.910864626,-0.417852313,0.03448,1.570796327,-0.133052925,0,0,0,0,0
0,-0.123182925,1.570796327,0.122682925,0,0,0,0,-0.03745,-0.456342191,0.912714626,-0.493832313,0.0426,-0.0431,-0.543642191,0.920414626,-0.413232313,0.0431,1.570796327,-0.122682925,0,0,0,0,0
0,-0.112912925,1.570796327,0.112312925,0,0,0,0,-0.04494,-0.449872191,0.920724626,-0.505332313,0.05112,-0.05172,-0.554632191,0.929964626,-0.408612313,0.05172,1.570796327,-0.112312925,0,0,0,0,0
0,-0.102642925,1.570796327,0.101942925,0,0,0,0,-0.05243,-0.443402191,0.928734626,-0.516832313,0.05964,-0.06034,-0.565622191,0.939514626,-0.403992313,0.06034,1.570796327,-0.101942925,0,0,0,0,0
0,-0.092372925,1.570796327,0.091572925,0,0,0,0,-0.05992,-0.436932191,0.936744626,-0.528332313,0.06816,-0.06896,-0.576612191,0.949064626,-0.399372313,0.06896,1.570796327,-0.091572925,0,0,0,0,0
0,-0.082102925,1.570796327,0.081202925,0,0,0,0,-0.06741,-0.430462191,0.944754626,-0.539832313,0.07668,-0.07758,-0.587602191,0.958614626,-0.394752313,0.07758,1.570796327,-0.081202925,0,0,0,0,0
0,-0.071832925,1.570796327,0.070832925,0,0,0,0,-0.0749,-0.423992191,0.952764626,-0.551332313,0.0852,-0.0862,-0.598592191,0.968164626,-0.390132313,0.0862,1.570796327,-0.070832925,0,0,0,0,0
0,-0.061562925,1.570796327,0.060462925,0,0,0,0,-0.08239,-0.417522191,0.960774626,-0.562832313,0.09372,-0.09482,-0.609582191,0.977714626,-0.385512313,0.09482,1.570796327,-0.060462925,0,0,0,0,0
0,-0.051292925,1.570796327,0.050092925,0,0,0,0,-0.08988,-0.411052191,0.968784626,-0.574332313,0.10224,-0.10344,-0.620572191,0.987264626,-0.380892313,0.10344,1.570796327,-0.050092925,0,0,0,0,0
0,-0.041022925,1.570796327,0.039722925,0,0,0,0,-0.09737,-0.404582191,0.976794626,-0.585832313,0.11076,-0.11206,-0.631562191,0.996814626,-0.376272313,0.11206,1.570796327,-0.039722925,0,0,0,0,0
0,-0.030752925,1.570796327,0.029352925,0,0,0,0,-0.10486,-0.398112191,0.984804626,-0.597332313,0.11928,-0.12068,-0.642552191,1.006364626,-0.371652313,0.12068,1.570796327,-0.029352925,0,0,0,0,0
0,-0.020482925,1.570796327,0.018982925,0,0,0,0,-0.11235,-0.391642191,0.992814626,-0.608832313,0.1278,-0.1293,-0.653542191,1.015914626,-0.367032313,0.1293,1.570796327,-0.018982925,0,0,0,0,0
0,-0.010212925,1.570796327,0.008612925,0,0,0,0,-0.11984,-0.385172191,1.000824626,-0.620332313,0.13632,-0.13792,-0.664532191,1.025464626,-0.362412313,0.13792,1.570796327,-0.008612925,0,0,0,0,0
0,-0.010212925,1.570796327,0.008612925,0,0,0,0,-0.12733,-0.385172191,1.000824626,-0.620332313,0.14484,-0.14654,-0.664532191,1.025464626,-0.362412313,0.14654,1.570796327,-0.008612925,0,0,0,0,0
0,-0.164262925,1.570796327,0.164162925,0,0,0,0,-0.00606,-0.479042191,0.878924626,-0.449162313,0.00606,-0.00606,-0.496492191,0.880364626,-0.433042313,0.00606,1.570796327,-0.164162925,0,0,0,0,0
0,-0.153992925,1.570796327,0.153792925,0,0,0,0,-0.01212,-0.469392191,0.885184626,-0.461992313,0.01212,-0.01212,-0.504292191,0.888064626,-0.429752313,0.01212,1.570796327,-0.153792925,0,0,0,0,0
0,-0.143722925,1.570796327,0.143422925,0,0,0,0,-0.01818,-0.459742191,0.891444626,-0.474822313,0.01818,-0.01818,-0.512092191,0.895764626,-0.426462313,0.01818,1.570796327,-0.143422925,0,0,0,0,0
0,-0.133452925,1.570796327,0.133052925,0,0,0,0,-0.02424,-0.450092191,0.897704626,-0.487652313,0.02424,-0.02424,-0.519892191,0.903464626,-0.423172313,0.02424,1.570796327,-0.133052925,0,0,0,0,0
0,-0.123182925,1.570796327,0.122682925,0,0,0,0,-0.0303,-0.440442191,0.903964626,-0.500482313,0.0303,-0.0303,-0.527692191,0.911164626,-0.419882313,0.0303,1.570796327,-0.122682925,0,0,0,0,0
0,-0.112912925,1.570796327,0.112312925,0,0,0,0,-0.03636,-0.430792191,0.910224626,-0.513312313,0.03636,-0.03636,-0.535492191,0.918864626,-0.416592313,0.03636,1.570796327,-0.112312925,0,0,0,0,0
0,-0.102642925,1.570796327,0.101942925,0,0,0,0,-0.04242,-0.421142191,0.916484626,-0.526142313,0.04242,-0.04242,-0.543292191,0.926564626,-0.413302313,0.04242,1.570796327,-0.101942925,0,0,0,0,0
0,-0.092372925,1.570796327,0.091572925,0,0,0,0,-0.04848,-0.411492191,0.922744626,-0.538972313,0.04848,-0.04848,-0.551092191,0.934264626,-0.410012313,0.04848,1.570796327,-0.091572925,0,0,0,0,0
0,-0.082102925,1.570796327,0.081202925,0,0,0,0,-0.05454,-0.401842191,0.929004626,-0.551802313,0.05454,-0.05454,-0.558892191,0.941964626,-0.406722313,0.05454,1.570796327,-0.081202925,0,0,0,0,0
0,-0.071832925,1.570796327,0.070832925,0,0,0,0,-0.0606,-0.392192191,0.935264626,-0.564632313,0.0606,-0.0606,-0.566692191,0.949664626,-0.403432313,0.0606,1.570796327,-0.070832925,0,0,0,0,0
0,-0.061562925,1.570796327,0.060462925,0,0,0,0,-0.06666,-0.382542191,0.941524626,-0.577462313,0.06666,-0.06666,-0.574492191,0.957364626,-0.400142313,0.06666,1.570796327,-0.060462925,0,0,0,0,0
0,-0.051292925,1.570796327,0.050092925,0,0,0,0,-0.07272,-0.372892191,0.947784626,-0.590292313,0.07272,-0.07272,-0.582292191,0.965064626,-0.396852313,0.07272,1.570796327,-0.050092925,0,0,0,0,0
0,-0.041022925,1.570796327,0.039722925,0,0,0,0,-0.07878,-0.363242191,0.954044626,-0.603122313,0.07878,-0.07878,-0.590092191,0.972764626,-0.393562313,0.07878,1.570796327,-0.039722925,0,0,0,0,0
0,-0.030752925,1.570796327,0.029352925,0,0,0,0,-0.08484,-0.353592191,0.960304626,-0.615952313,0.08484,-0.08484,-0.597892191,0.980464626,-0.390272313,0.08484,1.570796327,-0.029352925,0,0,0,0,0
0,-0.020482925,1.570796327,0.018982925,0,0,0,0,-0.0909,-0.343942191,0.966564626,-0.628782313,0.0909,-0.0909,-0.605692191,0.988164626,-0.386982313,0.0909,1.570796327,-0.018982925,0,0,0,0,0
0,-0.010212925,1.570796327,0.008612925,0,0,0,0,-0.09696,-0.334292191,0.972824626,-0.641612313,0.09696,-0.09696,-0.613492191,0.995864626,-0.383692313,0.09696,1.570796327,-0.008612925,0,0,0,0,0
0,-0.010212925,1.570796327,0.008612925,0,0,0,0,-0.09696,-0.324642191,0.979084626,-0.654442313,0.09696,-0.09696,-0.621292191,0.995864626,-0.383692313,0.09696,1.570796327,-0.008612925,0,0,0,0,0
0,-0.164262925,1.570796327,0.164162925,0,0,0,0,-0.0038,-0.477092191,0.878204626,-0.450402313,0.0038,-0.0038,-0.495362191,0.881284626,-0.435102313,0.0038,1.570796327,-0.164162925,0,0,0,0,0
0,-0.153992925,1.570796327,0.153792925,0,0,0,0,-0.0076,-0.465492191,0.883744626,-0.464472313,0.0076,-0.0076,-0.502032191,0.889904626,-0.433872313,0.0076,1.570796327,-0.153792925,0,0,0,0,0
0,-0.143722925,1.570796327,0.143422925,0,0,0,0,-0.0114,-0.453892191,0.889284626,-0.478542313,0.0114,-0.0114,-0.508702191,0.898524626,-0.432642313,0.0114,1.570796327,-0.143422925,0,0,0,0,0
0,-0.133452925,1.570796327,0.133052925,0,0,0,0,-0.0152,-0.442292191,0.894824626,-0.492612313,0.0152,-0.0152,-0.515372191,0.907144626,-0.431412313,0.0152,1.570796327,-0.133052925,0,0,0,0,0
0,-0.123182925,1.570796327,0.122682925,0,0,0,0,-0.019,-0.430692191,0.900364626,-0.506682313,0.019,-0.019,-0.522042191,0.915764626,-0.430182313,0.019,1.570796327,-0.122682925,0,0,0,0,0
0,-0.112912925,1.570796327,0.112312925,0,0,0,0,-0.0228,-0.419092191,0.905904626,-0.520752313,0.0228,-0.0228,-0.528712191,0.924384626,-0.428952313,0.0228,1.570796327,-0.112312925,0,0,0,0,0
0,-0.102642925,1.570796327,0.101942925,0,0,0,0,-0.0266,-0.407492191,0.911444626,-0.534822313,0.0266,-0.0266,-0.535382191,0.933004626,-0.427722313,0.0266,1.570796327,-0.101942925,0,0,0,0,0
0,-0.092372925,1.570796327,0.091572925,0,0,0,0,-0.0304,-0.395892191,0.916984626,-0.548892313,0.0304,-0.0304,-0.542052191,0.941624626,-0.426492313,0.0304,1.570796327,-0.091572925,0,0,0,0,0
0,-0.082102925,1.570796327,0.081202925,0,0,0,0,-0.0342,-0.384292191,0.922524626,-0.562962313,0.0342,-0.0342,-0.548722191,0.950244626,-0.425262313,0.0342,1.570796327,-0.081202925,0,0,0,0,0
0,-0.071832925,1.570796327,0.070832925,0,0,0,0,-0.038,-0.372692191,0.928064626,-0.577032313,0.038,-0.038,-0.555392191,0.958864626,-0.424032313,0.038,1.570796327,-0.070832925,0,0,0,0,0
0,-0.061562925,1.570796327,0.060462925,0,0,0,0,-0.0418,-0.361092191,0.933604626,-0.591102313,0.0418,-0.0418,-0.562062191,0.967484626,-0.422802313,0.0418,1.570796327,-0.060462925,0,0,0,0,0
0,-0.051292925,1.570796327,0.050092925,0,0,0,0,-0.0456,-0.349492191,0.939144626,-0.605172313,0.0456,-0.0456,-0.568732191,0.976104626,-0.421572313,0.0456,1.570796327,-0.050092925,0,0,0,0,0
0,-0.041022925,1.570796327,0.039722925,0,0,0,0,-0.0494,-0.337892191,0.944684626,-0.619242313,0.0494,-0.0494,-0.575402191,0.984724626,-0.420342313,0.0494,1.570796327,-0.039722925,0,0,0,0,0
0,-0.030752925,1.570796327,0.029352925,0,0,0,0,-0.0532,-0.326292191,0.950224626,-0.633312313,0.0532,-0.0532,-0.582072191,0.993344626,-0.419112313,0.0532,1.570796327,-0.029352925,0,0,0,0,0
0,-0.020482925,1.570796327,0.018982925,0,0,0,0,-0.057,-0.314692191,0.955764626,-0.647382313,0.057,-0.057,-0.588742191,1.001964626,-0.417882313,0.057,1.570796327,-0.018982925,0,0,0,0,0
0,-0.010212925,1.570796327,0.008612925,0,0,0,0,-0.0608,-0.303092191,0.961304626,-0.661452313,0.0608,-0.0608,-0.595412191,1.010584626,-0.416652313,0.0608,1.570796327,-0.008612925,0,0,0,0,0
0,-0.010212925,1.570796327,0.008612925,0,0,0,0,-0.0608,-0.291492191,0.966844626,-0.661452313,0.0608,-0.0608,-0.602082191,1.019204626,-0.415422313,0.0608,1.570796327,-0.008612925,0,0,0,0,0
0,-0.164262925,1.570796327,0.164162925,0,0,0,0,-0.00113,-0.474732191,0.876974626,-0.451522313,0.00113,-0.00113,-0.493932191,0.881904626,-0.437252313,0.00113,1.570796327,-0.164162925,0,0,0,0,0
0,-0.153992925,1.570796327,0.153792925,0,0,0,0,-0.00226,-0.460772191,0.881284626,-0.466712313,0.00226,-0.00226,-0.499172191,0.891144626,-0.438172313,0.00226,1.570796327,-0.153792925,0,0,0,0,0
0,-0.143722925,1.570796327,0.143422925,0,0,0,0,-0.00339,-0.446812191,0.885594626,-0.481902313,0.00339,-0.00339,-0.504412191,0.900384626,-0.439092313,0.00339,1.570796327,-0.143422925,0,0,0,0,0
0,-0.133452925,1.570796327,0.133052925,0,0,0,0,-0.00452,-0.432852191,0.889904626,-0.497092313,0.00452,-0.00452,-0.509652191,0.909624626,-0.440012313,0.00452,1.570796327,-0.133052925,0,0,0,0,0
0,-0.123182925,1.570796327,0.122682925,0,0,0,0,-0.00565,-0.418892191,0.894214626,-0.512282313,0.00565,-0.00565,-0.514892191,0.918864626,-0.440932313,0.00565,1.570796327,-0.122682925,0,0,0,0,0
0,-0.112912925,1.570796327,0.112312925,0,0,0,0,-0.00678,-0.404932191,0.898524626,-0.527472313,0.00678,-0.00678,-0.520132191,0.928104626,-0.441852313,0.00678,1.570796327,-0.112312925,0,0,0,0,0
0,-0.102642925,1.570796327,0.101942925,0,0,0,0,-0.00791,-0.390972191,0.902834626,-0.542662313,0.00791,-0.00791,-0.525372191,0.937344626,-0.442772313,0.00791,1.570796327,-0.101942925,0,0,0,0,0
0,-0.092372925,1.570796327,0.091572925,0,0,0,0,-0.00904,-0.377012191,0.907144626,-0.557852313,0.00904,-0.00904,-0.530612191,0.946584626,-0.443692313,0.00904,1.570796327,-0.091572925,0,0,0,0,0
0,-0.082102925,1.570796327,0.081202925,0,0,0,0,-0.01017,-0.363052191,0.911454626,-0.573042313,0.01017,-0.01017,-0.535852191,0.955824626,-0.444612313,0.01017,1.570796327,-0.081202925,0,0,0,0,0
0,-0.071832925,1.570796327,0.070832925,0,0,0,0,-0.0113,-0.349092191,0.915764626,-0.588232313,0.0113,-0.0113,-0.541092191,0.965064626,-0.445532313,0.0113,1.570796327,-0.070832925,0,0,0,0,0
0,-0.061562925,1.570796327,0.060462925,0,0,0,0,-0.01243,-0.335132191,0.920074626,-0.603422313,0.01243,-0.01243,-0.546332191,0.974304626,-0.446452313,0.01243,1.570796327,-0.060462925,0,0,0,0,0
0,-0.051292925,1.570796327,0.050092925,0,0,0,0,-0.01356,-0.321172191,0.924384626,-0.618612313,0.01356,-0.01356,-0.551572191,0.983544626,-0.447372313,0.01356,1.570796327,-0.050092925,0,0,0,0,0
0,-0.041022925,1.570796327,0.039722925,0,0,0,0,-0.01469,-0.307212191,0.928694626,-0.633802313,0.01469,-0.01469,-0.556812191,0.992784626,-0.448292313,0.01469,1.570796327,-0.039722925,0,0,0,0,0
0,-0.030752925,1.570796327,0.029352925,0,0,0,0,-0.01582,-0.293252191,0.933004626,-0.648992313,0.01582,-0.01582,-0.562052191,1.002024626,-0.449212313,0.01582,1.570796327,-0.029352925,0,0,0,0,0
0,-0.020482925,1.570796327,0.018982925,0,0,0,0,-0.01695,-0.279292191,0.937314626,-0.664182313,0.01695,-0.01695,-0.567292191,1.011264626,-0.450132313,0.01695,1.570796327,-0.018982925,0,0,0,0,0
0,-0.010212925,1.570796327,0.008612925,0,0,0,0,-0.01808,-0.265332191,0.941624626,-0.679372313,0.01808,-0.01808,-0.572532191,1.020504626,-0.451052313,0.01808,1.570796327,-0.008612925,0,0,0,0,0
0,-0.010212925,1.570796327,0.008612925,0,0,0,0,-0.01808,-0.251372191,0.945934626,-0.694562313,0.01808,-0.01808,-0.572532191,1.020504626,-0.451972313,0.01808,1.570796327,-0.008612925,0,0,0,0,0
0,-0.164262925,1.570796327,0.164162925,0,0,0,0,0.00308,-0.470312191,0.873584626,-0.452452313,-0.00308,0.00308,-0.490952191,0.881694626,-0.440032313,-0.00308,1.570796327,-0.164162925,0,0,0,0,0
0,-0.153992925,1.570796327,0.153792925,0,0,0,0,0.00616,-0.451932191,0.874504626,-0.468572313,-0.00616,0.00616,-0.493212191,0.890724626,-0.443732313,-0.00616,1.570796327,-0.153792925,0,0,0,0,0
0,-0.143722925,1.570796327,0.143422925,0,0,0,0,0.00924,-0.433552191,0.875424626,-0.484692313,-0.00924,0.00924,-0.495472191,0.899754626,-0.447432313,-0.00924,1.570796327,-0.143422925,0,0,0,0,0
0,-0.133452925,1.570796327,0.133052925,0,0,0,0,0.01232,-0.415172191,0.876344626,-0.500812313,-0.01232,0.01232,-0.497732191,0.908784626,-0.451132313,-0.01232,1.570796327,-0.133052925,0,0,0,0,0
0,-0.123182925,1.570796327,0.122682925,0,0,0,0,0.0154,-0.396792191,0.877264626,-0.516932313,-0.0154,0.0154,-0.499992191,0.917814626,-0.454832313,-0.0154,1.570796327,-0.122682925,0,0,0,0,0
0,-0.112912925,1.570796327,0.112312925,0,0,0,0,0.01848,-0.378412191,0.878184626,-0.533052313,-0.01848,0.01848,-0.502252191,0.926844626,-0.458532313,-0.01848,1.570796327,-0.112312925,0,0,0,0,0
0,-0.102642925,1.570796327,0.101942925,0,0,0,0,0.02156,-0.360032191,0.879104626,-0.549172313,-0.02156,0.02156,-0.504512191,0.935874626,-0.462232313,-0.02156,1.570796327,-0.101942925,0,0,0,0,0
0,-0.092372925,1.570796327,0.091572925,0,0,0,0,0.02464,-0.341652191,0.880024626,-0.565292313,-0.02464,0.02464,-0.506772191,0.944904626,-0.465932313,-0.02464,1.570796327,-0.091572925,0,0,0,0,0
0,-0.082102925,1.570796327,0.081202925,0,0,0,0,0.02772,-0.323272191,0.880944626,-0.581412313,-0.02772,0.02772,-0.509032191,0.953934626,-0.469632313,-0.02772,1.570796327,-0.081202925,0,0,0,0,0
0,-0.071832925,1.570796327,0.070832925,0,0,0,0,0.0308,-0.304892191,0.881864626,-0.597532313,-0.0308,0.0308,-0.511292191,0.962964626,-0.473332313,-0.0308,1.570796327,-0.070832925,0,0,0,0,0
0,-0.061562925,1.570796327,0.060462925,0,0,0,0,0.03388,-0.286512191,0.882784626,-0.613652313,-0.03388,0.03388,-0.513552191,0.971994626,-0.477032313,-0.03388,1.570796327,-0.060462925,0,0,0,0,0
0,-0.051292925,1.570796327,0.050092925,0,0,0,0,0.03696,-0.268132191,0.883704626,-0.629772313,-0.03696,0.03696,-0.515812191,0.981024626,-0.480732313,-0.03696,1.570796327,-0.050092925,0,0,0,0,0
0,-0.041022925,1.570796327,0.039722925,0,0,0,0,0.04004,-0.249752191,0.884624626,-0.645892313,-0.04004,0.04004,-0.518072191,0.990054626,-0.484432313,-0.04004,1.570796327,-0.039722925,0,0,0,0,0
0,-0.030752925,1.570796327,0.029352925,0,0,0,0,0.04312,-0.231372191,0.885544626,-0.662012313,-0.04312,0.04312,-0.520332191,0.999084626,-0.488132313,-0.04312,1.570796327,-0.029352925,0,0,0,0,0
0,-0.020482925,1.570796327,0.018982925,0,0,0,0,0.0462,-0.212992191,0.886464626,-0.678132313,-0.0462,0.0462,-0.522592191,1.008114626,-0.491832313,-0.0462,1.570796327,-0.018982925,0,0,0,0,0
0,-0.010212925,1.570796327,0.008612925,0,0,0,0,0.04928,-0.194612191,0.887384626,-0.694252313,-0.04928,0.04928,-0.524852191,1.017144626,-0.495532313,-0.04928,1.570796327,-0.008612925,0,0,0,0,0
0,-0.010212925,1.570796327,0.008612925,0,0,0,0,0.04928,-0.194612191,0.888304626,-0.694252313,-0.04928,0.04928,-0.524852191,1.026174626,-0.495532313,-0.04928,1.570796327,-0.008612925,0,0,0,0,0
0,-0.164262925,1.570796327,0.164162925,0,0,0,0,0.00554,-0.467132191,0.870404626,-0.452552313,-0.00554,0.00554,-0.488692191,0.880874626,-0.441462313,-0.00554,1.570796327,-0.164162925,0,0,0,0,0
0,-0.153992925,1.570796327,0.153792925,0,0,0,0,0.01108,-0.445572191,0.868144626,-0.468772313,-0.01108,0.01108,-0.488692191,0.889084626,-0.446592313,-0.01108,1.570796327,-0.153792925,0,0,0,0,0
0,-0.143722925,1.570796327,0.143422925,0,0,0,0,0.01662,-0.424012191,0.865884626,-0.484992313,-0.01662,0.01662,-0.488692191,0.897294626,-0.451722313,-0.01662,1.570796327,-0.143422925,0,0,0,0,0
0,-0.133452925,1.570796327,0.133052925,0,0,0,0,0.02216,-0.402452191,0.863624626,-0.501212313,-0.02216,0.02216,-0.488692191,0.905504626,-0.456852313,-0.02216,1.570796327,-0.133052925,0,0,0,0,0
0,-0.123182925,1.570796327,0.122682925,0,0,0,0,0.0277,-0.380892191,0.861364626,-0.517432313,-0.0277,0.0277,-0.488692191,0.913714626,-0.461982313,-0.0277,1.570796327,-0.122682925,0,0,0,0,0
0,-0.112912925,1.570796327,0.112312925,0,0,0,0,0.03324,-0.359332191,0.859104626,-0.533652313,-0.03324,0.03324,-0.488692191,0.921924626,-0.467112313,-0.03324,1.570796327,-0.112312925,0,0,0,0,0
0,-0.102642925,1.570796327,0.101942925,0,0,0,0,0.03878,-0.337772191,0.856844626,-0.549872313,-0.03878,0.03878,-0.488692191,0.930134626,-0.472242313,-0.03878,1.570796327,-0.101942925,0,0,0,0,0
0,-0.092372925,1.570796327,0.091572925,0,0,0,0,0.04432,-0.316212191,0.854584626,-0.566092313,-0.04432,0.04432,-0.488692191,0.938344626,-0.477372313,-0.04432,1.570796327,-0.091572925,0,0,0,0,0
0,-0.082102925,1.570796327,0.081202925,0,0,0,0,0.04986,-0.294652191,0.852324626,-0.582312313,-0.04986,0.04986,-0.488692191,0.946554626,-0.482502313,-0.04986,1.570796327,-0.081202925,0,0,0,0,0
0,-0.071832925,1.570796327,0.070832925,0,0,0,0,0.0554,-0.273092191,0.850064626,-0.598532313,-0.0554,0.0554,-0.488692191,0.954764626,-0.487632313,-0.0554,1.570796327,-0.070832925,0,0,0,0,0
0,-0.061562925,1.570796327,0.060462925,0,0,0,0,0.06094,-0.251532191,0.847804626,-0.614752313,-0.06094,0.06094,-0.488692191,0.962974626,-0.492762313,-0.06094,1.570796327,-0.060462925,0,0,0,0,0
0,-0.051292925,1.570796327,0.050092925,0,0,0,0,0.06648,-0.229972191,0.845544626,-0.630972313,-0.06648,0.06648,-0.488692191,0.971184626,-0.497892313,-0.06648,1.570796327,-0.050092925,0,0,0,0,0
0,-0.041022925,1.570796327,0.039722925,0,0,0,0,0.07202,-0.208412191,0.843284626,-0.647192313,-0.07202,0.07202,-0.488692191,0.979394626,-0.503022313,-0.07202,1.570796327,-0.039722925,0,0,0,0,0
0,-0.030752925,1.570796327,0.029352925,0,0,0,0,0.07756,-0.186852191,0.841024626,-0.663412313,-0.07756,0.07756,-0.488692191,0.987604626,-0.508152313,-0.07756,1.570796327,-0.029352925,0,0,0,0,0
0,-0.020482925,1.570796327,0.018982925,0,0,0,0,0.0831,-0.165292191,0.838764626,-0.679632313,-0.0831,0.0831,-0.488692191,0.995814626,-0.513282313,-0.0831,1.570796327,-0.018982925,0,0,0,0,0
0,-0.010212925,1.570796327,0.008612925,0,0,0,0,0.08864,-0.143732191,0.836504626,-0.695852313,-0.08864,0.08864,-0.488692191,1.004024626,-0.518412313,-0.08864,1.570796327,-0.008612925,0,0,0,0,0
0,-0.010212925,1.570796327,0.008612925,0,0,0,0,0.09418,-0.143732191,0.836504626,-0.712072313,-0.09418,0.09418,-0.488692191,1.012234626,-0.523542313,-0.09418,1.570796327,-0.008612925,0,0,0,0,0
0,-0.164262925,1.570796327,0.164162925,0,0,0,0,0.00739,-0.465492191,0.869894626,-0.453682313,-0.00739,0.00708,-0.486432191,0.879644626,-0.442492313,-0.00729,1.570796327,-0.164162925,0,0,0,0,0
0,-0.153992925,1.570796327,0.153792925,0,0,0,0,0.01478,-0.442292191,0.867124626,-0.471032313,-0.01478,0.01416,-0.484172191,0.886624626,-0.448652313,-0.01458,1.570796327,-0.153792925,0,0,0,0,0
0,-0.143722925,1.570796327,0.143422925,0,0,0,0,0.02217,-0.419092191,0.864354626,-0.488382313,-0.02217,0.02124,-0.481912191,0.893604626,-0.454812313,-0.02187,1.570796327,-0.143422925,0,0,0,0,0
